; generated by PrusaSlicer 2.4.2+win64 on 2022-09-03 at 11:52:44 UTC

; 

; external perimeters extrusion width = 0.45mm
; perimeters extrusion width = 0.45mm
; infill extrusion width = 0.45mm
; solid infill extrusion width = 0.45mm
; top infill extrusion width = 0.45mm
; support material extrusion width = 0.35mm
; first layer extrusion width = 0.42mm

M73 P0 R51
M73 Q0 S51
M201 X1000 Y1000 Z200 E5000 ; sets maximum accelerations, mm/sec^2
M203 X200 Y200 Z12 E120 ; sets maximum feedrates, mm / sec
M204 P1250 R1250 T1250 ; sets acceleration (P, T) and retract acceleration (R), mm/sec^2
M205 X10.00 Y10.00 Z0.20 E2.50 ; sets the jerk limits, mm/sec
M205 S0 T0 ; sets the minimum extruding and travel feed rate, mm/sec
M107
;TYPE:Custom
M115 U3.9.3 ; tell printer latest fw version
G90 ; use absolute coordinates
M83 ; extruder relative mode
M104 S195 ; set extruder temp
M140 S55 ; set bed temp
M190 S55 ; wait for bed temp
M109 S195 ; wait for extruder temp
G28 W ; home all without mesh bed level
G80 ; mesh bed leveling
G92 E0.0
G1 Z2.0 F3000 ;Move Z Axis up
G1 X10.1 Y20 Z0.28 F5000.0 ;Move to start position
G1 X10.1 Y200.0 Z0.28 F1500.0 E15 ;Draw the first line
G1 X10.4 Y200.0 Z0.28 F5000.0 ;Move to side a little
M73 P0 R50
M73 Q0 S50
G1 X10.4 Y20 Z0.28 F1500.0 E30 ;Draw the second line
G92 E0.0
G1 Z2.0 F3000 ;Move Z Axis up
G21 ; set units to millimeters
G90 ; use absolute coordinates
M83 ; use relative distances for extrusion
; Filament gcode
M107
;LAYER_CHANGE
;Z:0.15
;HEIGHT:0.15
;BEFORE_LAYER_CHANGE
G92 E0.0
;0.15


G1 E-6 F4800
G1 Z.3 F2400
;AFTER_LAYER_CHANGE
;0.15
G1 X90.404 Y79.76
G1 Z.15
G1 E6 F3000
M204 S1000
;TYPE:Skirt/Brim
;WIDTH:0.42
G1 F1200
G1 X91.459 Y78.666 E.03676
G1 X92.63 Y77.696 E.03676
G1 X93.902 Y76.864 E.03677
G1 X95.26 Y76.18 E.03677
G1 X96.685 Y75.652 E.03676
G1 X98.161 Y75.287 E.03677
G1 X99.668 Y75.089 E.03677
G1 X100.674 Y75.047 E.02435
G1 X134.84 Y75.061 E.82629
G1 X136.839 Y75.287 E.04867
G1 X138.315 Y75.652 E.03677
G1 X139.74 Y76.18 E.03676
G1 X140.666 Y76.626 E.02485
G1 X141.968 Y77.411 E.03677
G1 X143.541 Y78.665 E.04867
G1 X144.268 Y79.392 E.02485
G1 X145.237 Y80.563 E.03676
G1 X146.308 Y82.267 E.04867
G1 X146.753 Y83.193 E.02485
G1 X147.282 Y84.618 E.03676
G1 X147.729 Y86.58 E.04867
G1 X147.886 Y88.607 E.04918
G1 X147.886 Y146.393 E1.39753
G1 X147.844 Y147.399 E.02435
G1 X147.647 Y148.906 E.03677
G1 X147.282 Y150.382 E.03677
G1 X146.753 Y151.807 E.03676
G1 X146.069 Y153.165 E.03677
G1 X145.522 Y154.035 E.02485
G1 X144.596 Y155.24 E.03676
G1 X143.541 Y156.334 E.03677
G1 X142.37 Y157.304 E.03677
G1 X140.666 Y158.374 E.04867
G1 X139.285 Y159.009 E.03677
G1 X137.841 Y159.485 E.03677
G1 X136.353 Y159.796 E.03677
G1 X134.326 Y159.953 E.04917
G1 X100.674 Y159.953 E.81386
G1 X99.668 Y159.911 E.02435
G1 X98.161 Y159.713 E.03676
G1 X96.685 Y159.348 E.03677
G1 X95.26 Y158.82 E.03676
G1 X93.902 Y158.136 E.03677
G1 X92.63 Y157.304 E.03676
G1 X91.459 Y156.334 E.03677
G1 X90.404 Y155.24 E.03676
G1 X89.763 Y154.437 E.02485
G1 X88.931 Y153.165 E.03677
G1 X88.058 Y151.352 E.04867
G1 X87.582 Y149.908 E.03677
G1 X87.353 Y148.906 E.02485
G1 X87.156 Y147.399 E.03677
G1 X87.114 Y88.607 E1.42186
G1 X87.156 Y87.601 E.02435
M73 P1 R50
M73 Q1 S50
G1 X87.353 Y86.094 E.03677
G1 X87.718 Y84.618 E.03677
G1 X88.247 Y83.193 E.03677
G1 X88.692 Y82.267 E.02485
G1 X89.478 Y80.965 E.03676
G1 X90.367 Y79.807 E.03532
G1 X90.674 Y80.043 F2400
G1 F1200
G1 X91.717 Y78.955 E.03646
G1 X92.854 Y78.013 E.03571
G1 X94.09 Y77.204 E.03571
G1 X95.408 Y76.538 E.03571
G1 X96.792 Y76.024 E.03571
G1 X98.226 Y75.669 E.03571
G1 X99.69 Y75.476 E.03571
G1 X100.674 Y75.435 E.02383
G1 X134.818 Y75.448 E.82576
G1 X136.774 Y75.669 E.04761
G1 X138.208 Y76.024 E.03571
G1 X139.592 Y76.538 E.03571
G1 X140.479 Y76.965 E.0238
G1 X141.743 Y77.727 E.03571
G1 X143.283 Y78.955 E.04761
G1 X143.979 Y79.651 E.0238
G1 X144.921 Y80.788 E.03571
G1 X145.968 Y82.455 E.04761
G1 X146.395 Y83.341 E.0238
G1 X146.909 Y84.726 E.03571
G1 X147.347 Y86.645 E.04762
G1 X147.499 Y88.607 E.0476
G1 X147.499 Y146.393 E1.39753
G1 X147.457 Y147.377 E.02383
G1 X147.264 Y148.841 E.03571
G1 X146.909 Y150.274 E.03571
G1 X146.395 Y151.659 E.03571
G1 X145.73 Y152.977 E.03571
G1 X145.206 Y153.81 E.0238
G1 X144.307 Y154.982 E.03571
G1 X143.283 Y156.045 E.03571
G1 X142.146 Y156.987 E.03571
G1 X140.479 Y158.035 E.04761
G1 X139.136 Y158.651 E.03571
G1 X137.734 Y159.112 E.03571
G1 X136.288 Y159.414 E.03572
G1 X134.326 Y159.565 E.0476
G1 X100.674 Y159.565 E.81386
G1 X99.69 Y159.524 E.02383
G1 X98.226 Y159.331 E.03571
G1 X96.792 Y158.976 E.03572
G1 X95.408 Y158.462 E.03571
G1 X94.09 Y157.796 E.03571
G1 X92.854 Y156.987 E.03571
G1 X91.717 Y156.045 E.03572
G1 X90.693 Y154.982 E.03571
G1 X90.079 Y154.212 E.0238
G1 X89.27 Y152.977 E.03571
G1 X88.416 Y151.203 E.04761
G1 X87.955 Y149.8 E.03571
G1 X87.736 Y148.841 E.0238
G1 X87.543 Y147.377 E.03571
G1 X87.501 Y88.607 E1.42133
G1 X87.543 Y87.623 E.02383
G1 X87.736 Y86.159 E.03571
G1 X88.091 Y84.726 E.03571
G1 X88.605 Y83.341 E.03571
G1 X89.032 Y82.455 E.0238
G1 X89.794 Y81.19 E.03571
G1 X90.637 Y80.09 E.03351
G1 X90.944 Y80.326 F2400
G1 F1200
G1 X92.343 Y78.915 E.04804
G1 X93.481 Y78.043 E.03466
G1 X94.709 Y77.304 E.03466
G1 X96.012 Y76.708 E.03466
G1 X97.374 Y76.26 E.03466
G1 X98.777 Y75.969 E.03466
G1 X100.674 Y75.822 E.04602
G1 X134.796 Y75.836 E.82523
G1 X136.709 Y76.051 E.04656
G1 X138.1 Y76.397 E.03466
G1 X139.444 Y76.896 E.03466
G1 X140.291 Y77.304 E.02275
G1 X141.519 Y78.043 E.03466
G1 X143.024 Y79.244 E.04656
G1 X143.689 Y79.909 E.02275
G1 X144.604 Y81.012 E.03466
G1 X145.629 Y82.642 E.04656
G1 X146.037 Y83.49 E.02275
G1 X146.536 Y84.833 E.03466
G1 X146.965 Y86.71 E.04656
G1 X147.111 Y88.607 E.04602
G1 X147.111 Y146.393 E1.39753
G1 X146.965 Y148.29 E.04602
G1 X146.673 Y149.693 E.03466
G1 X146.226 Y151.055 E.03466
G1 X145.629 Y152.358 E.03466
G1 X144.89 Y153.586 E.03466
G1 X143.793 Y154.975 E.04282
G1 X142.657 Y156.085 E.0384
G1 X141.519 Y156.957 E.03466
G1 X140.291 Y157.696 E.03466
G1 X139.444 Y158.104 E.02275
G1 X138.1 Y158.603 E.03466
G1 X136.709 Y158.949 E.03466
G1 X135.288 Y159.137 E.03466
G1 X100.204 Y159.164 E.84852
G1 X98.777 Y159.031 E.03466
G1 X97.374 Y158.74 E.03466
G1 X96.012 Y158.292 E.03466
G1 X94.709 Y157.696 E.03466
G1 X93.481 Y156.957 E.03466
G1 X92.343 Y156.085 E.03466
G1 X90.982 Y154.723 E.04656
G1 X90.11 Y153.586 E.03466
G1 X89.61 Y152.789 E.02275
G1 X88.963 Y151.51 E.03466
G1 X88.464 Y150.167 E.03466
G1 X88.118 Y148.776 E.03466
G1 X87.93 Y147.355 E.03466
G1 X87.889 Y88.607 E1.42081
G1 X88.035 Y86.71 E.04602
G1 X88.327 Y85.307 E.03466
G1 X88.774 Y83.945 E.03466
G1 X89.371 Y82.642 E.03466
G1 X90.11 Y81.414 E.03466
G1 X90.908 Y80.373 E.03172
; printing object bottom.stl id:0 copy 0
G1 E-.9 F4800
;WIPE_START
G1 F1920
G1 X92.339 Y78.92 E-4.845
;WIPE_END
G1 E-.255 F4800
G1 Z.45 F2400
G1 X97.401 Y85.997
G1 Z.15
G1 E6 F3000
;TYPE:External perimeter
G1 F1200
G1 X97.714 Y85.647 E.01135
G1 X98.064 Y85.334 E.01136
G1 X98.447 Y85.062 E.01136
G1 X98.858 Y84.835 E.01136
G1 X99.291 Y84.656 E.01136
G1 X99.743 Y84.526 E.01136
G1 X100.205 Y84.447 E.01136
G1 X100.68 Y84.42 E.0115
G1 X134.32 Y84.42 E.81357
G1 X134.795 Y84.447 E.0115
G1 X135.257 Y84.526 E.01136
G1 X135.709 Y84.656 E.01136
G1 X136.142 Y84.835 E.01136
G1 X136.553 Y85.062 E.01136
G1 X136.936 Y85.334 E.01136
G1 X137.286 Y85.647 E.01136
G1 X137.599 Y85.997 E.01135
G1 X137.871 Y86.38 E.01136
G1 X138.098 Y86.791 E.01136
G1 X138.278 Y87.225 E.01136
G1 X138.408 Y87.676 E.01136
G1 X138.486 Y88.139 E.01136
G1 X138.513 Y88.613 E.0115
G1 X138.513 Y146.387 E1.39724
G1 X138.486 Y146.861 E.0115
M73 P2 R49
M73 Q2 S50
G1 X138.408 Y147.324 E.01136
G1 X138.278 Y147.775 E.01136
G1 X138.098 Y148.209 E.01136
G1 X137.871 Y148.62 E.01136
G1 X137.599 Y149.003 E.01136
G1 X137.382 Y149.246 E.00789
G1 X136.936 Y149.666 E.0148
G1 X136.553 Y149.938 E.01136
G1 X136.142 Y150.165 E.01136
G1 X135.709 Y150.344 E.01136
G1 X135.257 Y150.474 E.01136
G1 X134.795 Y150.553 E.01136
G1 X134.32 Y150.58 E.0115
G1 X100.68 Y150.58 E.81357
G1 X100.205 Y150.553 E.0115
M73 Q2 S49
G1 X99.743 Y150.474 E.01136
G1 X99.291 Y150.344 E.01136
G1 X98.858 Y150.165 E.01136
G1 X98.447 Y149.938 E.01136
G1 X98.064 Y149.666 E.01136
G1 X97.714 Y149.353 E.01136
G1 X97.401 Y149.003 E.01136
G1 X97.129 Y148.62 E.01136
G1 X96.902 Y148.209 E.01136
G1 X96.777 Y147.908 E.00789
G1 X96.592 Y147.324 E.0148
G1 X96.514 Y146.861 E.01136
G1 X96.487 Y146.387 E.0115
G1 X96.487 Y88.613 E1.39724
G1 X96.514 Y88.139 E.0115
G1 X96.592 Y87.676 E.01136
G1 X96.722 Y87.225 E.01136
G1 X96.902 Y86.791 E.01136
G1 X97.129 Y86.38 E.01135
G1 X97.366 Y86.046 E.0099
G1 X97.796 Y86.057 F2400
G1 X97.682 Y86.27
;TYPE:Perimeter
G1 F1200
G1 X97.988 Y85.922 E.01122
G1 X98.306 Y85.638 E.0103
G1 X98.653 Y85.391 E.0103
G1 X99.026 Y85.185 E.0103
G1 X99.42 Y85.022 E.0103
G1 X99.829 Y84.904 E.0103
G1 X100.249 Y84.833 E.0103
G1 X100.691 Y84.808 E.01071
G1 X134.309 Y84.808 E.81305
G1 X134.751 Y84.833 E.01071
G1 X135.171 Y84.904 E.0103
G1 X135.58 Y85.022 E.0103
G1 X135.974 Y85.185 E.0103
G1 X136.347 Y85.391 E.0103
G1 X136.694 Y85.638 E.0103
G1 X137.012 Y85.922 E.0103
G1 X137.296 Y86.239 E.0103
G1 X137.542 Y86.587 E.0103
G1 X137.748 Y86.959 E.0103
G1 X137.911 Y87.353 E.0103
G1 X138.029 Y87.762 E.0103
G1 X138.1 Y88.182 E.0103
G1 X138.125 Y88.624 E.01071
G1 X138.125 Y146.376 E1.39671
G1 X138.1 Y146.818 E.01071
G1 X138.029 Y147.238 E.0103
G1 X137.911 Y147.647 E.0103
G1 X137.748 Y148.041 E.0103
G1 X137.542 Y148.413 E.0103
G1 X137.296 Y148.761 E.0103
G1 X137.093 Y148.988 E.00736
G1 X136.694 Y149.362 E.01322
G1 X136.347 Y149.609 E.0103
G1 X135.974 Y149.815 E.0103
G1 X135.58 Y149.978 E.0103
G1 X135.171 Y150.096 E.0103
G1 X134.751 Y150.167 E.0103
G1 X134.309 Y150.192 E.01071
G1 X100.691 Y150.192 E.81305
G1 X100.249 Y150.167 E.01071
G1 X99.829 Y150.096 E.0103
G1 X99.42 Y149.978 E.0103
G1 X99.026 Y149.815 E.0103
G1 X98.653 Y149.609 E.0103
G1 X98.306 Y149.362 E.0103
G1 X97.988 Y149.078 E.0103
G1 X97.704 Y148.761 E.0103
G1 X97.458 Y148.413 E.0103
G1 X97.252 Y148.041 E.0103
G1 X97.089 Y147.647 E.0103
G1 X96.971 Y147.238 E.0103
G1 X96.9 Y146.818 E.0103
G1 X96.875 Y146.376 E.01071
G1 X96.875 Y88.624 E1.39671
G1 X96.9 Y88.182 E.01071
G1 X96.971 Y87.762 E.0103
G1 X97.089 Y87.353 E.0103
G1 X97.252 Y86.959 E.0103
G1 X97.458 Y86.587 E.0103
G1 X97.648 Y86.319 E.00793
G1 X97.964 Y86.544 F2400
G1 F1200
G1 X98.263 Y86.196 E.01109
G1 X98.548 Y85.941 E.00925
G1 X98.86 Y85.72 E.00925
G1 X99.195 Y85.535 E.00925
G1 X99.548 Y85.389 E.00925
G1 X99.915 Y85.283 E.00925
G1 X100.292 Y85.219 E.00925
G1 X100.702 Y85.196 E.00992
G1 X134.298 Y85.196 E.81252
G1 X134.708 Y85.219 E.00992
G1 X135.085 Y85.283 E.00925
G1 X135.452 Y85.389 E.00925
G1 X135.805 Y85.535 E.00925
G1 X136.14 Y85.72 E.00925
G1 X136.452 Y85.941 E.00925
G1 X136.737 Y86.196 E.00925
G1 X136.992 Y86.481 E.00925
G1 X137.213 Y86.793 E.00925
G1 X137.398 Y87.128 E.00925
G1 X137.544 Y87.481 E.00925
G1 X137.65 Y87.849 E.00925
G1 X137.714 Y88.226 E.00925
G1 X137.737 Y88.635 E.00992
G1 X137.737 Y146.365 E1.39619
G1 X137.714 Y146.774 E.00992
G1 X137.65 Y147.151 E.00925
G1 X137.544 Y147.519 E.00925
G1 X137.398 Y147.872 E.00925
G1 X137.213 Y148.207 E.00925
G1 X136.992 Y148.519 E.00925
G1 X136.803 Y148.73 E.00684
G1 X136.452 Y149.059 E.01165
G1 X136.14 Y149.28 E.00925
G1 X135.805 Y149.465 E.00925
G1 X135.452 Y149.611 E.00925
G1 X135.085 Y149.717 E.00925
G1 X134.708 Y149.781 E.00925
G1 X134.298 Y149.804 E.00992
G1 X100.702 Y149.804 E.81252
G1 X100.292 Y149.781 E.00992
G1 X99.915 Y149.717 E.00925
G1 X99.548 Y149.611 E.00925
G1 X99.195 Y149.465 E.00925
G1 X98.86 Y149.28 E.00925
G1 X98.548 Y149.059 E.00925
G1 X98.263 Y148.804 E.00925
G1 X98.008 Y148.519 E.00925
G1 X97.787 Y148.207 E.00925
G1 X97.602 Y147.872 E.00925
G1 X97.456 Y147.519 E.00925
G1 X97.35 Y147.151 E.00925
G1 X97.286 Y146.774 E.00925
G1 X97.263 Y146.365 E.00992
G1 X97.263 Y88.635 E1.39619
G1 X97.286 Y88.226 E.00992
G1 X97.35 Y87.849 E.00925
G1 X97.456 Y87.481 E.00925
G1 X97.602 Y87.128 E.00925
G1 X97.787 Y86.793 E.00925
G1 X97.929 Y86.593 E.00595
G1 E-.9 F4800
;WIPE_START
G1 F1920
G1 X98.263 Y86.196 E-1.23071
G1 X98.548 Y85.941 E-.90821
G1 X98.86 Y85.72 E-.90827
G1 X99.195 Y85.535 E-.90816
G1 X99.541 Y85.392 E-.88966
;WIPE_END
G1 E-.255 F4800
G1 Z.45 F2400
G1 X137.277 Y87.149
G1 Z.15
G1 E6 F3000
;TYPE:Solid infill
;WIDTH:0.421705
G1 F1200
G1 X136.523 Y86.395 E.02589
G1 X136.27 Y86.169 E.00824
G1 X135.985 Y85.967 E.0085
G1 X135.679 Y85.798 E.0085
G1 X135.356 Y85.664 E.0085
G1 X135.194 Y85.617 E.00408
G1 X137.316 Y87.739 E.07288
G1 X137.366 Y87.913 E.00441
G1 X137.433 Y88.407 E.0121
G1 X134.526 Y85.5 E.09986
G1 X133.962 Y85.487 E.01371
M73 P3 R49
M73 Q3 S49
G1 X137.447 Y88.971 E.1197
G1 X137.447 Y89.522 E.01338
G1 X133.411 Y85.487 E.13862
G1 X132.86 Y85.487 E.01338
G1 X137.447 Y90.073 E.15755
G1 X137.447 Y90.624 E.01338
G1 X132.31 Y85.487 E.17647
G1 X131.759 Y85.487 E.01338
G1 X137.447 Y91.174 E.19539
G1 X137.447 Y91.725 E.01338
G1 X131.208 Y85.487 E.21432
G1 X130.657 Y85.487 E.01338
G1 X137.447 Y92.276 E.23324
G1 X137.447 Y92.827 E.01338
G1 X130.106 Y85.487 E.25216
G1 X129.555 Y85.487 E.01338
G1 X137.447 Y93.378 E.27109
G1 X137.447 Y93.929 E.01338
G1 X129.004 Y85.487 E.29001
G1 X128.454 Y85.487 E.01338
G1 X137.447 Y94.48 E.30893
G1 X137.447 Y95.03 E.01338
G1 X127.903 Y85.487 E.32786
G1 X127.352 Y85.487 E.01338
G1 X137.447 Y95.581 E.34678
G1 X137.447 Y96.132 E.01338
G1 X126.801 Y85.487 E.3657
G1 X126.25 Y85.487 E.01338
G1 X137.447 Y96.683 E.38463
G1 X137.447 Y97.234 E.01338
G1 X125.699 Y85.487 E.40355
G1 X125.148 Y85.487 E.01338
G1 X137.447 Y97.785 E.42248
G1 X137.447 Y98.336 E.01338
G1 X124.598 Y85.487 E.4414
G1 X124.047 Y85.487 E.01338
G1 X137.447 Y98.886 E.46032
G1 X137.447 Y99.437 E.01338
G1 X123.496 Y85.487 E.47925
G1 X122.945 Y85.487 E.01338
G1 X137.447 Y99.988 E.49817
G1 X137.447 Y100.539 E.01338
G1 X122.394 Y85.487 E.51709
G1 X121.843 Y85.487 E.01338
G1 X137.447 Y101.09 E.53602
G1 X137.447 Y101.641 E.01338
G1 X121.292 Y85.487 E.55494
G1 X120.742 Y85.487 E.01338
G1 X137.447 Y102.192 E.57386
G1 X137.447 Y102.742 E.01338
G1 X120.191 Y85.487 E.59279
G1 X119.64 Y85.487 E.01338
G1 X137.447 Y103.293 E.61171
G1 X137.447 Y103.844 E.01338
G1 X119.089 Y85.487 E.63064
G1 X118.538 Y85.487 E.01338
G1 X137.447 Y104.395 E.64956
G1 X137.447 Y104.946 E.01338
G1 X117.987 Y85.487 E.66848
G1 X117.436 Y85.487 E.01338
G1 X137.447 Y105.497 E.68741
G1 X137.447 Y106.048 E.01338
G1 X116.886 Y85.487 E.70633
G1 X116.335 Y85.487 E.01338
G1 X137.447 Y106.598 E.72525
G1 X137.447 Y107.149 E.01338
G1 X115.784 Y85.487 E.74418
G1 X115.233 Y85.487 E.01338
M73 P4 R49
M73 Q4 S49
G1 X137.447 Y107.7 E.7631
G1 X137.447 Y108.251 E.01338
M73 P4 R48
G1 X114.682 Y85.487 E.78202
G1 X114.131 Y85.487 E.01338
M73 Q4 S48
G1 X137.447 Y108.802 E.80095
G1 X137.447 Y109.353 E.01338
G1 X113.58 Y85.487 E.81987
G1 X113.03 Y85.487 E.01338
G1 X137.447 Y109.904 E.83879
G1 X137.447 Y110.454 E.01338
G1 X112.479 Y85.487 E.85772
G1 X111.928 Y85.487 E.01338
G1 X137.447 Y111.005 E.87664
G1 X137.447 Y111.556 E.01338
G1 X111.377 Y85.487 E.89557
G1 X110.826 Y85.487 E.01338
G1 X137.447 Y112.107 E.91449
G1 X137.447 Y112.658 E.01338
G1 X110.275 Y85.487 E.93341
G1 X109.724 Y85.487 E.01338
G1 X137.447 Y113.209 E.95234
G1 X137.447 Y113.76 E.01338
G1 X109.174 Y85.487 E.97126
G1 X108.623 Y85.487 E.01338
G1 X137.447 Y114.31 E.99018
G1 X137.447 Y114.861 E.01338
G1 X108.072 Y85.487 E1.00911
G1 X107.521 Y85.487 E.01338
G1 X137.447 Y115.412 E1.02803
G1 X137.447 Y115.963 E.01338
G1 X106.97 Y85.487 E1.04695
G1 X106.419 Y85.487 E.01338
M73 P5 R48
M73 Q5 S48
G1 X137.447 Y116.514 E1.06588
G1 X137.447 Y117.065 E.01338
G1 X105.868 Y85.487 E1.0848
G1 X105.318 Y85.487 E.01338
G1 X137.447 Y117.616 E1.10372
G1 X137.447 Y118.166 E.01338
G1 X104.767 Y85.487 E1.12265
G1 X104.216 Y85.487 E.01338
G1 X137.447 Y118.717 E1.14157
G1 X137.447 Y119.268 E.01338
G1 X103.665 Y85.487 E1.1605
G1 X103.114 Y85.487 E.01338
G1 X137.447 Y119.819 E1.17942
G1 X137.447 Y120.37 E.01338
G1 X102.563 Y85.487 E1.19834
G1 X102.012 Y85.487 E.01338
G1 X137.447 Y120.921 E1.21727
G1 X137.447 Y121.472 E.01338
