; generated by PrusaSlicer 2.4.2+win64 on 2022-09-03 at 11:53:49 UTC

; 

; external perimeters extrusion width = 0.45mm
; perimeters extrusion width = 0.45mm
; infill extrusion width = 0.45mm
; solid infill extrusion width = 0.45mm
; top infill extrusion width = 0.45mm
; support material extrusion width = 0.35mm
; first layer extrusion width = 0.42mm

M73 P0 R2
M73 Q0 S2
M201 X1000 Y1000 Z200 E5000 ; sets maximum accelerations, mm/sec^2
M203 X200 Y200 Z12 E120 ; sets maximum feedrates, mm / sec
M204 P1250 R1250 T1250 ; sets acceleration (P, T) and retract acceleration (R), mm/sec^2
M205 X10.00 Y10.00 Z0.20 E2.50 ; sets the jerk limits, mm/sec
M205 S0 T0 ; sets the minimum extruding and travel feed rate, mm/sec
M107
;TYPE:Custom
M115 U3.9.3 ; tell printer latest fw version
G90 ; use absolute coordinates
M83 ; extruder relative mode
M104 S195 ; set extruder temp
M140 S55 ; set bed temp
M190 S55 ; wait for bed temp
M109 S195 ; wait for extruder temp
G28 W ; home all without mesh bed level
G80 ; mesh bed leveling
G92 E0.0
G1 Z2.0 F3000 ;Move Z Axis up
G1 X10.1 Y20 Z0.28 F5000.0 ;Move to start position
G1 X10.1 Y200.0 Z0.28 F1500.0 E15 ;Draw the first line
M73 P0 R1
G1 X10.4 Y200.0 Z0.28 F5000.0 ;Move to side a little
M73 P6 R1
M73 Q6 S1
G1 X10.4 Y20 Z0.28 F1500.0 E30 ;Draw the second line
G92 E0.0
G1 Z2.0 F3000 ;Move Z Axis up
G21 ; set units to millimeters
G90 ; use absolute coordinates
M83 ; use relative distances for extrusion
; Filament gcode
M107
;LAYER_CHANGE
;Z:0.15
;HEIGHT:0.15
;BEFORE_LAYER_CHANGE
G92 E0.0
;0.15


M73 P12 R1
M73 Q12 S1
G1 E-6 F4800
G1 Z.3 F2400
;AFTER_LAYER_CHANGE
;0.15
G1 X109.925 Y104.313
G1 Z.15
M73 P15 R1
M73 Q15 S1
G1 E6 F3000
M204 S1000
;TYPE:Skirt/Brim
;WIDTH:0.42
G1 F1200
G1 X111.508 Y103.091 E.04837
G1 X112.955 Y102.313 E.03973
G1 X114.847 Y101.664 E.04837
M73 P16 R1
M73 Q16 S1
G1 X116.939 Y101.359 E.05112
G1 X118.85 Y101.425 E.04626
G1 X121.122 Y101.946 E.05636
G1 X122.948 Y102.762 E.04837
G1 X124.319 Y103.667 E.03973
G1 X126.023 Y105.295 E.05701
G1 X126.988 Y106.625 E.03973
G1 X127.885 Y108.412 E.04837
G1 X128.448 Y110.332 E.04837
G1 X128.659 Y112.321 E.04837
G1 X128.659 Y122.679 E.25052
G1 X128.448 Y124.668 E.04837
M73 P17 R1
M73 Q17 S1
G1 X127.885 Y126.588 E.04837
G1 X127.172 Y128.068 E.03973
G1 X125.947 Y129.79 E.05112
G1 X124.578 Y131.127 E.04626
G1 X122.632 Y132.408 E.05636
G1 X120.781 Y133.165 E.04837
G1 X118.824 Y133.578 E.04837
G1 X116.824 Y133.636 E.04837
M73 P18 R1
M73 Q18 S1
G1 X114.847 Y133.336 E.04838
G1 X113.18 Y132.783 E.04248
G1 X111.209 Y131.711 E.05425
G1 X109.925 Y130.687 E.03973
G1 X108.585 Y129.202 E.04837
G1 X107.376 Y127.179 E.05701
G1 X106.703 Y125.295 E.04838
G1 X106.377 Y123.321 E.04837
G1 X106.377 Y111.679 E.28158
G1 X106.703 Y109.705 E.04837
M73 P19 R1
M73 Q19 S1
G1 X107.531 Y107.498 E.057
G1 X108.585 Y105.798 E.04838
G1 X109.884 Y104.358 E.04692
G1 X110.171 Y104.617 F2400
G1 F1200
G1 X111.722 Y103.415 E.04745
G1 X113.107 Y102.669 E.03805
G1 X114.933 Y102.042 E.04669
G1 X116.951 Y101.747 E.04932
G1 X118.798 Y101.809 E.0447
G1 X121.002 Y102.315 E.05468
M73 P20 R1
M73 Q20 S1
G1 X122.764 Y103.103 E.04669
G1 X124.077 Y103.97 E.03805
G1 X125.731 Y105.551 E.05532
G1 X126.655 Y106.823 E.03805
G1 X127.522 Y108.549 E.04669
G1 X128.067 Y110.401 E.04669
G1 X128.272 Y112.321 E.04669
G1 X128.272 Y122.679 E.25052
G1 X128.067 Y124.599 E.04669
M73 P21 R1
M73 Q21 S1
G1 X127.522 Y126.451 E.04669
G1 X126.839 Y127.869 E.03805
G1 X125.658 Y129.531 E.04932
G1 X124.337 Y130.823 E.0447
G1 X122.449 Y132.067 E.05468
G1 X120.661 Y132.796 E.04669
G1 X118.772 Y133.194 E.04669
G1 X116.842 Y133.249 E.04669
G1 X114.933 Y132.958 E.04669
G1 X113.337 Y132.428 E.04068
G1 X111.423 Y131.388 E.05269
G1 X110.193 Y130.407 E.03805
M73 P22 R1
M73 Q22 S1
G1 X108.898 Y128.974 E.04669
G1 X107.725 Y127.01 E.05532
G1 X107.077 Y125.192 E.04669
G1 X106.764 Y123.287 E.04669
G1 X106.764 Y111.713 E.2799
G1 X107.077 Y109.808 E.04669
G1 X107.881 Y107.667 E.05532
M73 P23 R1
M73 Q23 S1
G1 X108.898 Y106.026 E.04669
G1 X110.131 Y104.661 E.04448
G1 X110.418 Y104.921 F2400
G1 F1200
G1 X111.935 Y103.739 E.04653
G1 X113.26 Y103.026 E.03637
G1 X115.02 Y102.42 E.04501
G1 X116.964 Y102.135 E.04753
G1 X118.746 Y102.194 E.04313
G1 X120.882 Y102.684 E.05299
G1 X122.581 Y103.445 E.04501
G1 X123.836 Y104.273 E.03637
G1 X125.439 Y105.806 E.05364
G1 X126.323 Y107.022 E.03637
M73 P24 R1
M73 Q24 S1
G1 X127.159 Y108.685 E.04501
G1 X127.685 Y110.47 E.04501
G1 X127.884 Y112.321 E.04501
G1 X127.884 Y122.679 E.25052
G1 X127.685 Y124.53 E.04501
G1 X127.159 Y126.315 E.04501
G1 X126.506 Y127.67 E.03637
G1 X125.369 Y129.273 E.04753
G1 X124.095 Y130.52 E.04314
M73 P25 R1
M73 Q25 S1
G1 X122.265 Y131.725 E.05299
G1 X120.541 Y132.427 E.04501
G1 X118.72 Y132.81 E.04501
G1 X116.859 Y132.861 E.04501
G1 X115.019 Y132.58 E.04501
G1 X113.494 Y132.073 E.03888
G1 X111.636 Y131.064 E.05112
G1 X110.461 Y130.126 E.03637
G1 X109.212 Y128.746 E.04501
G1 X108.074 Y126.842 E.05364
G1 X107.451 Y125.089 E.04501
G1 X107.15 Y123.252 E.04501
G1 X107.15 Y111.748 E.27822
M73 P26 R1
M73 Q26 S1
G1 X107.451 Y109.911 E.04501
G1 X108.23 Y107.835 E.05364
G1 X109.212 Y106.254 E.04501
G1 X110.378 Y104.965 E.04202
; printing object key.stl id:0 copy 0
G1 E-.9 F4800
;WIPE_START
G1 F1920
G1 X111.935 Y103.739 E-4.7093
G1 X111.986 Y103.711 E-.1357
;WIPE_END
G1 E-.255 F4800
G1 Z.45 F2400
G1 X116.874 Y111.71
M73 P27 R1
M73 Q27 S1
G1 Z.15
G1 E6 F3000
;TYPE:Perimeter
G1 F1200
G1 X117.025 Y111.61 E.00438
G1 X117.192 Y111.539 E.00438
G1 X117.362 Y111.5 E.00423
G1 X117.57 Y111.493 E.00502
G1 X117.729 Y111.515 E.00388
G1 X117.901 Y111.571 E.00438
G1 X118.061 Y111.657 E.00438
G1 X118.202 Y111.77 E.00438
G1 X118.321 Y111.906 E.00438
G1 X118.414 Y112.062 E.00438
G1 X118.478 Y112.231 E.00438
G1 X118.51 Y112.409 E.00438
G1 X118.51 Y112.584 E.00423
G1 X118.471 Y112.788 E.00502
G1 X118.414 Y112.938 E.00388
G1 X118.321 Y113.094 E.00438
G1 X118.202 Y113.23 E.00438
G1 X118.061 Y113.343 E.00438
G1 X117.901 Y113.429 E.00438
G1 X117.729 Y113.485 E.00438
G1 X117.549 Y113.509 E.00438
G1 X117.368 Y113.501 E.00438
G1 X117.198 Y113.462 E.00423
G1 X117.008 Y113.378 E.00502
G1 X116.874 Y113.29 E.00388
G1 X116.743 Y113.165 E.00438
G1 X116.637 Y113.018 E.00438
G1 X116.558 Y112.855 E.00438
G1 X116.51 Y112.68 E.00438
G1 X116.494 Y112.5 E.00438
G1 X116.51 Y112.32 E.00438
G1 X116.558 Y112.145 E.00438
G1 X116.637 Y111.982 E.00438
G1 X116.743 Y111.835 E.00438
G1 X116.831 Y111.752 E.00293
G1 X116.631 Y111.406 F2400
G1 F1200
G1 X116.841 Y111.267 E.00607
G1 X117.071 Y111.169 E.00607
G1 X117.312 Y111.114 E.00598
G1 X117.59 Y111.105 E.00671
G1 X117.816 Y111.135 E.00551
G1 X118.054 Y111.213 E.00607
G1 X118.275 Y111.332 E.00607
G1 X118.471 Y111.488 E.00607
G1 X118.636 Y111.677 E.00607
G1 X118.765 Y111.893 E.00607
G1 X118.853 Y112.128 E.00607
G1 X118.898 Y112.375 E.00607
G1 X118.898 Y112.622 E.00598
G1 X118.845 Y112.894 E.00671
G1 X118.765 Y113.107 E.00551
G1 X118.636 Y113.323 E.00607
G1 X118.471 Y113.512 E.00607
G1 X118.275 Y113.668 E.00607
G1 X118.054 Y113.787 E.00607
G1 X117.815 Y113.865 E.00607
G1 X117.567 Y113.898 E.00607
G1 X117.316 Y113.887 E.00607
G1 X117.075 Y113.832 E.00598
M73 P28 R1
G1 X116.821 Y113.72 E.00671
G1 X116.631 Y113.594 E.00551
M73 Q28 S1
G1 X116.45 Y113.421 E.00607
G1 X116.302 Y113.218 E.00607
G1 X116.194 Y112.992 E.00607
G1 X116.127 Y112.75 E.00607
G1 X116.104 Y112.5 E.00607
G1 X116.127 Y112.25 E.00607
G1 X116.194 Y112.008 E.00607
G1 X116.302 Y111.782 E.00607
G1 X116.45 Y111.579 E.00607
G1 X116.588 Y111.447 E.00462
G1 X116.389 Y111.101 F2400
;TYPE:External perimeter
G1 F1200
G1 X116.656 Y110.924 E.00776
G1 X116.951 Y110.798 E.00776
G1 X117.263 Y110.727 E.00773
G1 X117.61 Y110.716 E.0084
G1 X117.902 Y110.756 E.00714
G1 X118.207 Y110.855 E.00776
G1 X118.49 Y111.007 E.00776
G1 X118.74 Y111.207 E.00776
G1 X118.951 Y111.448 E.00776
G1 X119.116 Y111.724 E.00776
G1 X119.229 Y112.024 E.00776
G1 X119.286 Y112.34 E.00776
G1 X119.286 Y112.659 E.00773
G1 X119.22 Y113 E.0084
G1 X119.116 Y113.276 E.00714
G1 X118.951 Y113.552 E.00776
G1 X118.74 Y113.793 E.00776
G1 X118.49 Y113.993 E.00776
G1 X118.207 Y114.145 E.00776
G1 X117.902 Y114.244 E.00776
G1 X117.584 Y114.287 E.00776
G1 X117.264 Y114.273 E.00776
G1 X116.952 Y114.202 E.00773
G1 X116.635 Y114.061 E.0084
G1 X116.389 Y113.899 E.00714
G1 X116.157 Y113.677 E.00776
G1 X115.968 Y113.418 E.00776
G1 X115.829 Y113.129 E.00776
G1 X115.744 Y112.819 E.00776
G1 X115.715 Y112.5 E.00776
G1 X115.744 Y112.181 E.00776
G1 X115.829 Y111.871 E.00776
G1 X115.968 Y111.582 E.00776
G1 X116.157 Y111.323 E.00776
G1 X116.345 Y111.143 E.00631
G1 X116.687 Y111.218 F2400
G1 E-.9 F4800
;WIPE_START
G1 F1920
G1 X116.656 Y110.924 E-.90235
G1 X116.951 Y110.798 E-.76182
G1 X117.263 Y110.727 E-.75863
G1 X117.61 Y110.716 E-.82472
G1 X117.902 Y110.756 E-.70107
G1 X118.207 Y110.855 E-.76179
G1 X118.257 Y110.882 E-.13462
;WIPE_END
G1 E-.255 F4800
G1 Z.45 F2400
G1 X118.394 Y112.422
G1 Z.15
G1 E6 F3000
;TYPE:Solid infill
;WIDTH:0.488153
G1 F1200
M73 P29 R1
M73 Q29 S1
G1 X117.842 Y111.869 E.02221
G1 X117.786 Y111.839 E.00179
G1 X117.555 Y111.785 E.00676
G1 X117.4 Y111.79 E.00441
G1 X117.186 Y111.858 E.00639
G1 X118.147 Y112.819 E.03865
G1 X118 Y113.019 E.00705
G1 X117.823 Y113.141 E.0061
G1 X116.864 Y112.181 E.0386
G1 X116.797 Y112.372 E.00575
G1 X116.786 Y112.5 E.00366
G1 X116.831 Y112.752 E.0073
G1 X116.87 Y112.832 E.0025
G1 X117.425 Y113.387 E.02235
G1 E-.9 F4800
;WIPE_START
G1 F1920
G1 X116.87 Y112.832 E-1.86696
G1 X116.831 Y112.752 E-.20848
G1 X116.786 Y112.5 E-.60932
G1 X116.797 Y112.372 E-.30592
G1 X116.864 Y112.181 E-.48014
G1 X117.273 Y112.59 E-1.37418
;WIPE_END
G1 E-.255 F4800
G1 Z.45 F2400
G1 X117.729 Y121.515
G1 Z.15
G1 E6 F3000
;TYPE:Perimeter
;WIDTH:0.42
G1 F1200
G1 X117.901 Y121.571 E.00438
G1 X118.061 Y121.657 E.00438
M73 P30 R1
G1 X118.202 Y121.77 E.00438
G1 X118.321 Y121.906 E.00438
M73 Q30 S1
G1 X118.414 Y122.062 E.00438
G1 X118.478 Y122.231 E.00438
G1 X118.51 Y122.409 E.00438
G1 X118.51 Y122.591 E.00438
G1 X118.478 Y122.769 E.00438
G1 X118.414 Y122.938 E.00438
G1 X118.325 Y123.089 E.00423
G1 X118.186 Y123.243 E.00502
G1 X118.061 Y123.343 E.00388
G1 X117.901 Y123.429 E.00438
G1 X117.729 Y123.485 E.00438
G1 X117.549 Y123.509 E.00438
G1 X117.368 Y123.501 E.00438
G1 X117.198 Y123.462 E.00423
G1 X117.008 Y123.378 E.00502
G1 X116.874 Y123.29 E.00388
G1 X116.743 Y123.165 E.00438
G1 X116.637 Y123.018 E.00438
G1 X116.558 Y122.855 E.00438
G1 X116.51 Y122.68 E.00438
G1 X116.494 Y122.5 E.00438
G1 X116.51 Y122.32 E.00438
G1 X116.558 Y122.145 E.00438
G1 X116.637 Y121.982 E.00438
G1 X116.743 Y121.835 E.00438
G1 X116.874 Y121.71 E.00438
G1 X117.025 Y121.61 E.00438
G1 X117.192 Y121.539 E.00438
G1 X117.362 Y121.5 E.00423
G1 X117.669 Y121.507 E.00743
G1 X117.59 Y121.105 F2400
G1 F1200
G1 X117.816 Y121.135 E.00551
G1 X118.054 Y121.213 E.00607
G1 X118.275 Y121.332 E.00607
G1 X118.471 Y121.488 E.00607
G1 X118.636 Y121.677 E.00607
G1 X118.765 Y121.893 E.00607
G1 X118.853 Y122.128 E.00607
G1 X118.898 Y122.375 E.00607
G1 X118.898 Y122.625 E.00607
G1 X118.853 Y122.872 E.00607
G1 X118.765 Y123.107 E.00607
G1 X118.638 Y123.32 E.00598
G1 X118.453 Y123.526 E.00671
G1 X118.275 Y123.668 E.00551
G1 X118.054 Y123.787 E.00607
G1 X117.815 Y123.865 E.00607
G1 X117.567 Y123.898 E.00607
G1 X117.316 Y123.887 E.00607
G1 X117.075 Y123.832 E.00598
G1 X116.821 Y123.72 E.00671
G1 X116.631 Y123.594 E.00551
G1 X116.45 Y123.421 E.00607
G1 X116.302 Y123.218 E.00607
G1 X116.194 Y122.992 E.00607
G1 X116.127 Y122.75 E.00607
G1 X116.104 Y122.5 E.00607
G1 X116.127 Y122.25 E.00607
G1 X116.194 Y122.008 E.00607
G1 X116.302 Y121.782 E.00607
G1 X116.45 Y121.579 E.00607
G1 X116.631 Y121.406 E.00607
G1 X116.841 Y121.267 E.00607
G1 X117.071 Y121.169 E.00607
G1 X117.312 Y121.114 E.00598
G1 X117.53 Y121.107 E.00526
G1 X117.61 Y120.716 F2400
;TYPE:External perimeter
G1 F1200
G1 X117.902 Y120.756 E.00714
G1 X118.207 Y120.855 E.00776
G1 X118.49 Y121.007 E.00776
G1 X118.74 Y121.207 E.00776
G1 X118.951 Y121.448 E.00776
G1 X119.116 Y121.724 E.00776
G1 X119.229 Y122.024 E.00776
G1 X119.286 Y122.34 E.00776
G1 X119.286 Y122.66 E.00776
G1 X119.229 Y122.976 E.00776
G1 X119.116 Y123.276 E.00776
G1 X118.952 Y123.551 E.00773
G1 X118.72 Y123.809 E.0084
G1 X118.49 Y123.993 E.00714
G1 X118.207 Y124.145 E.00776
G1 X117.902 Y124.244 E.00776
G1 X117.584 Y124.287 E.00776
G1 X117.264 Y124.273 E.00776
G1 X116.952 Y124.202 E.00773
G1 X116.635 Y124.061 E.0084
G1 X116.389 Y123.899 E.00714
G1 X116.157 Y123.677 E.00776
G1 X115.968 Y123.418 E.00776
G1 X115.829 Y123.129 E.00776
G1 X115.744 Y122.819 E.00776
G1 X115.715 Y122.5 E.00776
M73 P31 R1
G1 X115.744 Y122.181 E.00776
M73 Q31 S1
G1 X115.829 Y121.871 E.00776
G1 X115.968 Y121.582 E.00776
G1 X116.157 Y121.323 E.00776
G1 X116.389 Y121.101 E.00776
G1 X116.656 Y120.924 E.00776
G1 X116.951 Y120.798 E.00776
G1 X117.263 Y120.727 E.00773
G1 X117.55 Y120.718 E.00695
G1 X117.745 Y120.979 F2400
G1 E-.9 F4800
;WIPE_START
G1 F1920
G1 X117.902 Y120.756 E-.84191
G1 X118.207 Y120.855 E-.76181
G1 X118.49 Y121.007 E-.7618
G1 X118.74 Y121.207 E-.76176
G1 X118.951 Y121.448 E-.76183
G1 X119.116 Y121.724 E-.76178
G1 X119.145 Y121.8 E-.1941
;WIPE_END
G1 E-.255 F4800
G1 Z.45 F2400
G1 X118.394 Y122.422
G1 Z.15
G1 E6 F3000
;TYPE:Solid infill
;WIDTH:0.488152
G1 F1200
G1 X117.842 Y121.869 E.02221
G1 X117.786 Y121.839 E.00179
G1 X117.555 Y121.785 E.00676
G1 X117.4 Y121.79 E.00442
G1 X117.186 Y121.858 E.00639
G1 X118.147 Y122.819 E.03865
G1 X117.986 Y123.031 E.00757
G1 X117.823 Y123.141 E.00557
G1 X116.864 Y122.181 E.0386
G1 X116.797 Y122.372 E.00575
G1 X116.786 Y122.5 E.00366
G1 X116.831 Y122.752 E.0073
G1 X116.87 Y122.832 E.0025
G1 X117.425 Y123.387 E.02235
; stop printing object key.stl id:0 copy 0
M106 S255
;LAYER_CHANGE
;Z:0.3
;HEIGHT:0.15
;BEFORE_LAYER_CHANGE
G92 E0.0
;0.3


G1 E-.9 F4800
;WIPE_START
G1 F1920
G1 X116.87 Y122.832 E-1.867
G1 X116.831 Y122.752 E-.20846
G1 X116.786 Y122.5 E-.60934
G1 X116.797 Y122.372 E-.30588
G1 X116.864 Y122.181 E-.48016
G1 X117.273 Y122.59 E-1.37416
;WIPE_END
G1 E-.255 F4800
M73 P32 R1
G1 Z.45 F2400
;AFTER_LAYER_CHANGE
;0.3
; printing object key.stl id:0 copy 0
M73 Q32 S1
G1 X117.546 Y113.434
G1 Z.3
G1 E6 F3000
M204 S800
;TYPE:Perimeter
;WIDTH:0.45
G1 F900
G1 X117.379 Y113.427 E.00437
G1 X117.215 Y113.389 E.00437
G1 X117.061 Y113.323 E.00437
G1 X116.921 Y113.231 E.00437
G1 X116.8 Y113.115 E.00437
G1 X116.701 Y112.98 E.00437
G1 X116.629 Y112.829 E.00437
G1 X116.584 Y112.667 E.00437
G1 X116.569 Y112.5 E.00437
G1 X116.584 Y112.333 E.00437
G1 X116.629 Y112.171 E.00437
G1 X116.701 Y112.02 E.00437
G1 X116.8 Y111.885 E.00437
G1 X116.921 Y111.769 E.00437
G1 X117.061 Y111.677 E.00437
G1 X117.215 Y111.611 E.00437
G1 X117.361 Y111.577 E.00391
G1 X117.712 Y111.588 E.00914
G1 X117.872 Y111.64 E.00437
G1 X118.019 Y111.72 E.00437
G1 X118.15 Y111.824 E.00437
G1 X118.261 Y111.95 E.00437
G1 X118.347 Y112.094 E.00437
G1 X118.405 Y112.251 E.00437
G1 X118.435 Y112.416 E.00437
G1 X118.435 Y112.566 E.00391
G1 X118.383 Y112.808 E.00644
G1 X118.261 Y113.05 E.00706
G1 X118.15 Y113.176 E.00437
G1 X118.019 Y113.28 E.00437
G1 X117.872 Y113.36 E.00437
G1 X117.605 Y113.426 E.00715
M204 S1000
G1 X117.565 Y113.853 F2400
M204 S800
G1 F900
G1 X117.322 Y113.842 E.00633
G1 X117.085 Y113.788 E.00633
G1 X116.862 Y113.693 E.00633
G1 X116.659 Y113.559 E.00633
G1 X116.484 Y113.391 E.00633
G1 X116.341 Y113.195 E.00633
G1 X116.236 Y112.976 E.00633
G1 X116.171 Y112.742 E.00633
G1 X116.149 Y112.5 E.00633
G1 X116.171 Y112.258 E.00633
G1 X116.236 Y112.024 E.00633
G1 X116.341 Y111.805 E.00633
G1 X116.484 Y111.609 E.00633
M73 P33 R1
G1 X116.659 Y111.441 E.00633
G1 X116.862 Y111.307 E.00633
M73 Q33 S1
G1 X117.085 Y111.212 E.00633
G1 X117.312 Y111.16 E.00605
G1 X117.634 Y111.156 E.0084
G1 X117.805 Y111.179 E.0045
G1 X118.036 Y111.254 E.00633
G1 X118.25 Y111.369 E.00633
G1 X118.44 Y111.521 E.00633
G1 X118.6 Y111.704 E.00633
G1 X118.724 Y111.912 E.00633
G1 X118.81 Y112.14 E.00633
G1 X118.853 Y112.379 E.00633
G1 X118.853 Y112.611 E.00605
G1 X118.785 Y112.926 E.0084
G1 X118.724 Y113.088 E.0045
G1 X118.6 Y113.296 E.00633
