; generated by PrusaSlicer 2.4.2+win64 on 2022-09-03 at 12:45:34 UTC

; 

; external perimeters extrusion width = 0.45mm
; perimeters extrusion width = 0.45mm
; infill extrusion width = 0.45mm
; solid infill extrusion width = 0.45mm
; top infill extrusion width = 0.45mm
; support material extrusion width = 0.35mm
; first layer extrusion width = 0.42mm

M73 P0 R2
M73 Q0 S2
M201 X1000 Y1000 Z200 E5000 ; sets maximum accelerations, mm/sec^2
M203 X200 Y200 Z12 E120 ; sets maximum feedrates, mm / sec
M204 P1250 R1250 T1250 ; sets acceleration (P, T) and retract acceleration (R), mm/sec^2
M205 X10.00 Y10.00 Z0.20 E2.50 ; sets the jerk limits, mm/sec
M205 S0 T0 ; sets the minimum extruding and travel feed rate, mm/sec
M107
;TYPE:Custom
M115 U3.9.3 ; tell printer latest fw version
G90 ; use absolute coordinates
M83 ; extruder relative mode
M104 S195 ; set extruder temp
M140 S55 ; set bed temp
M190 S55 ; wait for bed temp
M109 S195 ; wait for extruder temp
G28 W ; home all without mesh bed level
G80 ; mesh bed leveling
G92 E0.0
G1 Z2.0 F3000 ;Move Z Axis up
G1 X10.1 Y20 Z0.28 F5000.0 ;Move to start position
G1 X10.1 Y200.0 Z0.28 F1500.0 E15 ;Draw the first line
G1 X10.4 Y200.0 Z0.28 F5000.0 ;Move to side a little
M73 P5 R2
M73 Q5 S2
G1 X10.4 Y20 Z0.28 F1500.0 E30 ;Draw the second line
G92 E0.0
G1 Z2.0 F3000 ;Move Z Axis up
G21 ; set units to millimeters
G90 ; use absolute coordinates
M83 ; use relative distances for extrusion
; Filament gcode
M107
;LAYER_CHANGE
;Z:0.15
;HEIGHT:0.15
;BEFORE_LAYER_CHANGE
G92 E0.0
;0.15


M73 P10 R2
M73 Q10 S2
G1 E-6 F4800
G1 Z.3 F2400
;AFTER_LAYER_CHANGE
;0.15
M73 P11 R2
M73 Q11 S2
G1 X106.927 Y103.08
G1 Z.15
M73 P13 R2
M73 Q13 S2
G1 E6 F3000
M204 S1000
;TYPE:Skirt/Brim
;WIDTH:0.42
G1 F1200
G1 X107.949 Y102.052 E.03507
G1 X109.444 Y100.859 E.04625
M73 P13 R1
G1 X110.674 Y100.092 E.03507
G1 X111.652 Y99.607 E.0264
M73 Q13 S1
G1 X112.999 Y99.071 E.03507
G1 X114.048 Y98.769 E.0264
G1 X115.535 Y98.473 E.03667
M73 P14 R1
M73 Q14 S1
G1 X116.697 Y98.366 E.02823
G1 X118.117 Y98.352 E.03433
G1 X119.715 Y98.515 E.03886
G1 X121.58 Y98.94 E.04625
G1 X123.195 Y99.529 E.04157
G1 X125.194 Y100.605 E.05492
G1 X126.575 Y101.629 E.04157
G1 X127.957 Y102.95 E.04625
G1 X128.883 Y104.066 E.03507
G1 X129.817 Y105.509 E.04157
G1 X130.646 Y107.232 E.04625
G1 X131.121 Y108.602 E.03507
G1 X131.376 Y109.663 E.0264
G1 X131.598 Y111.096 E.03507
G1 X131.659 Y112.186 E.0264
G1 X131.659 Y122.814 E.25704
G1 X131.488 Y124.719 E.04625
M73 P15 R1
M73 Q15 S1
G1 X131.193 Y126.138 E.03506
G1 X130.867 Y127.18 E.0264
G1 X130.323 Y128.524 E.03507
G1 X129.817 Y129.491 E.0264
G1 X129.003 Y130.77 E.03667
G1 X128.278 Y131.685 E.02823
G1 X127.307 Y132.72 E.03433
G1 X126.084 Y133.763 E.03886
G1 X125.194 Y134.395 E.0264
G1 X123.935 Y135.114 E.03507
G1 X122.947 Y135.577 E.0264
G1 X121.58 Y136.06 E.03506
G1 X120.524 Y136.338 E.0264
G1 X119.093 Y136.569 E.03507
G1 X117.183 Y136.655 E.04625
M73 P16 R1
M73 Q16 S1
G1 X115.469 Y136.517 E.04157
G1 X114.039 Y136.229 E.03529
G1 X112.098 Y135.585 E.04945
G1 X110.593 Y134.861 E.04038
G1 X108.779 Y133.657 E.05267
G1 X107.495 Y132.514 E.04157
G1 X106.237 Y131.074 E.04625
G1 X105.276 Y129.649 E.04157
G1 X104.614 Y128.359 E.03507
G1 X104.196 Y127.351 E.0264
G1 X103.775 Y125.963 E.03507
G1 X103.434 Y124.082 E.04625
G1 X103.341 Y122.635 E.03507
G1 X103.341 Y112.365 E.24837
G1 X103.434 Y110.918 E.03507
M73 P17 R1
M73 Q17 S1
G1 X103.592 Y109.838 E.0264
G1 X103.942 Y108.431 E.03507
G1 X104.614 Y106.641 E.04625
G1 X105.415 Y105.12 E.04157
G1 X106.237 Y103.926 E.03507
G1 X106.889 Y103.126 E.02495
G1 X107.189 Y103.371 F2400
G1 F1200
G1 X108.217 Y102.332 E.03536
G1 X109.657 Y101.183 E.04457
G1 X110.858 Y100.433 E.03422
G1 X113.119 Y99.44 E.05973
G1 X114.134 Y99.147 E.02555
G1 X115.585 Y98.858 E.03577
G1 X116.71 Y98.753 E.02733
M73 P18 R1
G1 X118.097 Y98.739 E.03354
M73 Q18 S1
G1 X119.663 Y98.899 E.03808
G1 X121.46 Y99.309 E.04457
G1 X123.042 Y99.886 E.04073
G1 X124.98 Y100.929 E.05324
G1 X126.333 Y101.932 E.04073
G1 X127.665 Y103.205 E.04457
G1 X128.57 Y104.294 E.03422
G1 X129.484 Y105.708 E.04073
G1 X130.283 Y107.368 E.04457
G1 X130.747 Y108.705 E.03422
G1 X131.212 Y111.131 E.05973
G1 X131.272 Y112.186 E.02556
G1 X131.272 Y122.814 E.25704
G1 X131.106 Y124.649 E.04457
M73 P19 R1
M73 Q19 S1
G1 X130.819 Y126.035 E.03422
G1 X129.974 Y128.356 E.05973
G1 X129.484 Y129.292 E.02556
G1 X128.691 Y130.54 E.03577
G1 X127.989 Y131.426 E.02733
G1 X127.041 Y132.438 E.03354
G1 X125.842 Y133.46 E.03808
G1 X124.981 Y134.071 E.02556
G1 X122.794 Y135.22 E.05973
G1 X120.438 Y135.96 E.05973
G1 X119.041 Y136.185 E.03422
G1 X117.2 Y136.268 E.04457
G1 X115.521 Y136.133 E.04073
M73 P20 R1
G1 X114.125 Y135.85 E.03445
M73 Q20 S1
G1 X112.255 Y135.23 E.04765
G1 X110.779 Y134.521 E.0396
G1 X109.02 Y133.354 E.05104
G1 X107.763 Y132.234 E.04073
G1 X106.55 Y130.846 E.04457
G1 X105.609 Y129.45 E.04073
G1 X104.559 Y127.214 E.05973
G1 X104.149 Y125.86 E.03422
G1 X103.82 Y124.047 E.04456
G1 X103.728 Y122.635 E.03422
G1 X103.728 Y112.365 E.24837
G1 X103.974 Y109.908 E.05973
M73 P21 R1
M73 Q21 S1
G1 X104.316 Y108.535 E.03422
G1 X104.964 Y106.809 E.04457
G1 X105.747 Y105.319 E.04073
G1 X106.55 Y104.154 E.03422
G1 X107.151 Y103.418 E.02297
G1 X107.451 Y103.663 F2400
G1 F1200
G1 X108.485 Y102.612 E.03565
G1 X109.871 Y101.507 E.04288
G1 X111.041 Y100.775 E.03338
G1 X113.239 Y99.809 E.05805
G1 X115.634 Y99.242 E.05953
G1 X118.077 Y99.126 E.05914
G1 X119.611 Y99.283 E.0373
G1 X121.34 Y99.678 E.04289
G1 X122.89 Y100.242 E.03989
M73 P22 R1
M73 Q22 S1
G1 X124.767 Y101.253 E.05156
G1 X126.092 Y102.235 E.03989
G1 X127.373 Y103.46 E.04289
G1 X128.256 Y104.522 E.03338
G1 X129.151 Y105.907 E.03989
G1 X129.92 Y107.505 E.04288
G1 X130.374 Y108.808 E.03338
G1 X130.826 Y111.166 E.05805
G1 X130.884 Y112.186 E.02471
G1 X130.884 Y122.814 E.25704
G1 X130.725 Y124.58 E.04289
M73 P23 R1
M73 Q23 S1
G1 X130.445 Y125.932 E.03338
G1 X129.624 Y128.187 E.05805
G1 X128.379 Y130.31 E.05954
G1 X126.774 Y132.156 E.05914
G1 X125.601 Y133.157 E.0373
G1 X124.767 Y133.747 E.02471
G1 X122.642 Y134.863 E.05805
G1 X120.352 Y135.582 E.05805
G1 X118.989 Y135.801 E.03338
G1 X117.217 Y135.88 E.04289
G1 X115.573 Y135.749 E.03989
G1 X114.211 Y135.472 E.03361
G1 X112.412 Y134.875 E.04585
G1 X110.965 Y134.181 E.03882
G1 X109.262 Y133.051 E.04942
M73 P24 R1
M73 Q24 S1
G1 X108.031 Y131.954 E.03989
G1 X106.864 Y130.618 E.04288
G1 X105.942 Y129.251 E.03989
G1 X104.923 Y127.078 E.05805
G1 X104.523 Y125.757 E.03338
G1 X104.206 Y124.012 E.04288
G1 X104.116 Y122.635 E.03338
G1 X104.116 Y112.365 E.24837
G1 X104.355 Y109.977 E.05805
G1 X104.69 Y108.638 E.03338
M73 P25 R1
G1 X105.313 Y106.978 E.04288
M73 Q25 S1
G1 X106.08 Y105.518 E.03989
G1 X106.864 Y104.382 E.03338
G1 X107.413 Y103.71 E.02099
G1 E-.9 F4800
;WIPE_START
G1 F1920
G1 X108.485 Y102.612 E-3.64293
G1 X108.88 Y102.297 E-1.20207
;WIPE_END
G1 E-.255 F4800
G1 Z.45 F2400
G1 X114.085 Y109.543
G1 Z.15
G1 E6 F3000
G1 F1200
G1 X114.708 Y108.949 E.02083
G1 X115.429 Y108.484 E.02076
G1 X116.223 Y108.165 E.02069
G1 X117.037 Y108.004 E.02006
G1 X117.889 Y107.997 E.0206
G1 X118.53 Y108.098 E.01571
G1 X119.149 Y108.289 E.01566
G1 X119.858 Y108.641 E.01915
G1 X120.508 Y109.122 E.01956
M73 P26 R1
M73 Q26 S1
G1 X121.063 Y109.713 E.0196
G1 X121.521 Y110.428 E.02055
G1 X121.84 Y111.225 E.02076
G1 X122.003 Y112.067 E.02074
G1 X122.007 Y112.894 E.02
G1 X121.852 Y113.728 E.02052
G1 X121.544 Y114.527 E.02071
G1 X121.089 Y115.253 E.02071
G1 X120.51 Y115.876 E.02057
G1 X119.871 Y116.351 E.01926
G1 X119.294 Y116.651 E.01574
G1 X118.652 Y116.873 E.01642
G1 X117.869 Y117.006 E.01922
G1 X117.058 Y116.998 E.01961
G1 X116.176 Y116.821 E.02176
G1 X115.351 Y116.472 E.02166
G1 X114.631 Y115.989 E.02098
G1 X113.996 Y115.351 E.02175
G1 X113.543 Y114.678 E.01964
G1 X113.222 Y113.951 E.01922
G1 X113.054 Y113.293 E.01642
G1 X112.986 Y112.646 E.01574
G1 X113.03 Y111.851 E.01926
G1 X113.232 Y111.024 E.02057
G1 X113.586 Y110.245 E.02071
G1 X114.05 Y109.592 E.01936
G1 X114.365 Y109.814 F2400
G1 F1200
G1 X114.935 Y109.263 E.01917
G1 X115.593 Y108.836 E.01898
G1 X116.318 Y108.541 E.01893
G1 X117.06 Y108.392 E.0183
G1 X117.846 Y108.383 E.01902
G1 X118.43 Y108.472 E.01428
G1 X119.019 Y108.655 E.01491
G1 X119.669 Y108.98 E.01757
M73 P27 R1
G1 X120.262 Y109.422 E.01789
M73 Q27 S1
G1 X120.766 Y109.964 E.01791
G1 X121.184 Y110.62 E.01881
G1 X121.473 Y111.349 E.01898
G1 X121.619 Y112.12 E.01897
G1 X121.619 Y112.875 E.01825
G1 X121.474 Y113.637 E.01877
G1 X121.19 Y114.369 E.01899
G1 X120.792 Y115.003 E.0181
G1 X120.263 Y115.577 E.01886
G1 X119.678 Y116.015 E.01767
G1 X119.128 Y116.3 E.01499
G1 X118.542 Y116.5 E.01498
G1 X117.823 Y116.62 E.01764
G1 X117.081 Y116.611 E.01793
G1 X116.308 Y116.456 E.01908
G1 X115.55 Y116.138 E.01987
G1 X114.89 Y115.701 E.01914
G1 X114.306 Y115.118 E.01995
G1 X113.89 Y114.504 E.01794
G1 X113.594 Y113.837 E.01764
G1 X113.438 Y113.238 E.01498
G1 X113.373 Y112.621 E.01499
G1 X113.416 Y111.892 E.01767
G1 X113.604 Y111.135 E.01886
G1 X113.914 Y110.453 E.01812
G1 X114.33 Y109.863 E.01746
G1 X114.646 Y110.088 F2400
G1 F1200
G1 X115.163 Y109.577 E.01757
G1 X115.758 Y109.187 E.01722
G1 X116.415 Y108.917 E.01717
G1 X117.085 Y108.779 E.01653
G1 X117.804 Y108.769 E.0174
G1 X118.356 Y108.854 E.01352
G1 X118.887 Y109.02 E.01345
G1 X119.478 Y109.318 E.016
G1 X120.014 Y109.721 E.01622
G1 X120.47 Y110.214 E.01624
M73 P28 R1
G1 X120.831 Y110.781 E.01627
M73 Q28 S1
G1 X121.096 Y111.442 E.01722
G1 X121.231 Y112.141 E.01722
G1 X121.235 Y112.823 E.01648
G1 X121.106 Y113.516 E.01704
G1 X120.85 Y114.181 E.01723
G1 X120.493 Y114.755 E.01636
G1 X120.015 Y115.278 E.01714
G1 X119.485 Y115.678 E.01605
G1 X118.963 Y115.949 E.01422
G1 X118.434 Y116.128 E.01352
G1 X117.778 Y116.235 E.01607
G1 X117.106 Y116.223 E.01625
G1 X116.405 Y116.08 E.01731
G1 X115.719 Y115.789 E.01803
G1 X115.122 Y115.389 E.01737
G1 X114.616 Y114.884 E.0173
G1 X114.236 Y114.329 E.01626
G1 X113.964 Y113.723 E.01607
G1 X113.822 Y113.182 E.01352
G1 X113.76 Y112.597 E.01422
G1 X113.802 Y111.935 E.01605
G1 X113.975 Y111.248 E.01714
G1 X114.258 Y110.632 E.01639
G1 X114.611 Y110.136 E.01472
G1 X114.926 Y110.362 F2400
G1 F1200
G1 X114.977 Y110.291 E.00213
G1 X115.417 Y109.871 E.0147
G1 X115.954 Y109.523 E.01548
G1 X116.513 Y109.293 E.01462
G1 X117.111 Y109.167 E.01478
G1 X117.763 Y109.155 E.01579
G1 X118.255 Y109.228 E.01203
G1 X118.755 Y109.385 E.01268
G1 X119.286 Y109.655 E.0144
G1 X119.765 Y110.019 E.01455
G1 X120.172 Y110.462 E.01455
G1 X120.493 Y110.972 E.01457
G1 X120.728 Y111.567 E.01547
G1 X120.847 Y112.194 E.01545
G1 X120.847 Y112.804 E.01473
G1 X120.728 Y113.426 E.01531
G1 X120.51 Y113.993 E.01471
G1 X120.193 Y114.509 E.01464
M73 P29 R1
G1 X119.765 Y114.981 E.01541
M73 Q29 S1
G1 X119.29 Y115.342 E.01443
G1 X118.824 Y115.586 E.01272
G1 X118.325 Y115.755 E.01274
G1 X117.735 Y115.849 E.01446
G1 X117.133 Y115.836 E.01455
G1 X116.504 Y115.704 E.01556
G1 X115.918 Y115.456 E.01539
G1 X115.381 Y115.1 E.01558
G1 X114.924 Y114.648 E.01553
G1 X114.582 Y114.152 E.01457
G1 X114.335 Y113.608 E.01446
G1 X114.201 Y113.098 E.01274
G1 X114.148 Y112.575 E.01272
G1 X114.188 Y111.98 E.01443
G1 X114.346 Y111.362 E.01541
G1 X114.602 Y110.813 E.01465
G1 X114.891 Y110.411 E.01198
G1 X115.204 Y110.638 F2400
G1 F1200
G1 X115.28 Y110.534 E.00312
G1 X115.669 Y110.166 E.01295
G1 X116.147 Y109.859 E.01374
G1 X116.641 Y109.659 E.01289
G1 X117.171 Y109.55 E.01308
G1 X117.722 Y109.541 E.01333
G1 X118.182 Y109.609 E.01126
G1 X118.621 Y109.749 E.01115
G1 X119.092 Y109.992 E.0128
G1 X119.514 Y110.315 E.01287
G1 X119.872 Y110.709 E.01287
G1 X120.154 Y111.161 E.01287
G1 X120.36 Y111.69 E.01374
G1 X120.459 Y112.215 E.0129
G1 X120.462 Y112.752 E.01299
G1 X120.359 Y113.305 E.01362
G1 X120.169 Y113.808 E.013
G1 X119.892 Y114.264 E.0129
G1 X119.514 Y114.685 E.01368
G1 X119.095 Y115.007 E.01278
G1 X118.659 Y115.235 E.01191
G1 X118.219 Y115.382 E.0112
G1 X117.694 Y115.463 E.01286
G1 X117.162 Y115.449 E.01286
G1 X116.605 Y115.329 E.0138
G1 X116.087 Y115.106 E.01362
G1 X115.639 Y114.809 E.01302
G1 X115.231 Y114.41 E.01379
G1 X114.927 Y113.974 E.01287
G1 X114.705 Y113.491 E.01286
G1 X114.585 Y113.043 E.0112
G1 X114.535 Y112.553 E.01191
M73 P30 R1
G1 X114.573 Y112.026 E.01278
M73 Q30 S1
G1 X114.716 Y111.479 E.01368
G1 X114.944 Y110.996 E.01291
G1 X115.169 Y110.687 E.00924
G1 X115.482 Y110.911 F2400
G1 F1200
G1 X115.561 Y110.801 E.00329
G1 X115.896 Y110.481 E.01121
G1 X116.312 Y110.211 E.012
G1 X116.74 Y110.035 E.01118
G1 X117.198 Y109.937 E.01133
G1 X117.683 Y109.927 E.01174
G1 X118.08 Y109.984 E.0097
G1 X118.487 Y110.114 E.01033
G1 X118.897 Y110.327 E.01116
G1 X119.262 Y110.61 E.01119
G1 X119.571 Y110.955 E.01119
G1 X119.814 Y111.348 E.01118
G1 X119.991 Y111.811 E.012
G1 X120.074 Y112.266 E.01117
G1 X120.075 Y112.732 E.01128
G1 X119.982 Y113.214 E.01187
G1 X119.814 Y113.651 E.01132
G1 X119.571 Y114.045 E.01119
G1 X119.262 Y114.39 E.01119
G1 X118.898 Y114.673 E.01116
G1 X118.52 Y114.873 E.01033
G1 X118.113 Y115.008 E.01038
G1 X117.655 Y115.077 E.01121
G1 X117.192 Y115.062 E.01119
G1 X116.739 Y114.965 E.01122
G1 X116.284 Y114.772 E.01194
G1 X115.894 Y114.517 E.01126
G1 X115.537 Y114.171 E.01203
G1 X115.271 Y113.794 E.01118
G1 X115.075 Y113.373 E.01121
G1 X114.964 Y112.959 E.01038
G1 X114.923 Y112.534 E.01033
G1 X114.958 Y112.074 E.01116
G1 X115.075 Y111.626 E.01119
G1 X115.271 Y111.206 E.01119
G1 X115.447 Y110.96 E.00732
G1 X115.76 Y111.187 F2400
G1 F1200
G1 X115.863 Y111.045 E.00427
G1 X116.149 Y110.775 E.00949
G1 X116.479 Y110.561 E.00951
G1 X116.841 Y110.409 E.00951
G1 X117.228 Y110.324 E.00957
G1 X117.645 Y110.313 E.01009
G1 X118.008 Y110.366 E.00887
G1 X118.351 Y110.477 E.00871
G1 X118.699 Y110.661 E.00953
G1 X119.008 Y110.904 E.00951
G1 X119.269 Y111.198 E.00951
G1 X119.473 Y111.534 E.00951
G1 X119.614 Y111.901 E.00951
G1 X119.687 Y112.287 E.00951
G1 X119.69 Y112.681 E.00951
G1 X119.613 Y113.095 E.01019
G1 X119.473 Y113.467 E.0096
G1 X119.269 Y113.802 E.00949
G1 X119.008 Y114.096 E.00951
G1 X118.698 Y114.34 E.00953
G1 X118.381 Y114.51 E.0087
G1 X118.008 Y114.635 E.00953
M73 P31 R1
G1 X117.618 Y114.69 E.00951
G1 X117.225 Y114.675 E.00951
M73 Q31 S1
G1 X116.841 Y114.591 E.00951
G1 X116.455 Y114.423 E.01019
G1 X116.124 Y114.204 E.0096
G1 X115.842 Y113.931 E.00949
G1 X115.613 Y113.611 E.00951
G1 X115.445 Y113.256 E.00951
G1 X115.343 Y112.875 E.00953
G1 X115.311 Y112.517 E.0087
G1 X115.343 Y112.124 E.00953
G1 X115.445 Y111.744 E.00951
G1 X115.613 Y111.39 E.00949
G1 X115.724 Y111.236 E.00459
G1 E-.9 F4800
;WIPE_START
G1 F1920
G1 X115.863 Y111.045 E-.56192
G1 X116.149 Y110.775 E-.93213
G1 X116.479 Y110.561 E-.93381
G1 X116.841 Y110.409 E-.93363
G1 X117.228 Y110.324 E-.93976
G1 X117.457 Y110.318 E-.54375
;WIPE_END
G1 E-.255 F4800
G1 Z.45 F2400
G1 X117.04 Y118.004
G1 Z.15
G1 E6 F3000
G1 F1200
G1 X117.889 Y117.998 E.02053
G1 X118.53 Y118.098 E.01569
G1 X119.149 Y118.289 E.01566
G1 X119.858 Y118.641 E.01915
G1 X120.508 Y119.122 E.01956
G1 X121.065 Y119.715 E.01968
G1 X121.528 Y120.441 E.02081
G1 X121.845 Y121.241 E.02082
G1 X122.005 Y122.084 E.02074
G1 X122.004 Y122.932 E.02052
G1 X121.877 Y123.646 E.01754
M73 P32 R1
G1 X121.64 Y124.324 E.01736
M73 Q32 S1
G1 X121.251 Y125.03 E.0195
G1 X120.707 Y125.685 E.0206
G1 X120.127 Y126.181 E.01846
G1 X119.429 Y126.59 E.01956
G1 X118.668 Y126.868 E.0196
G1 X117.87 Y127.005 E.0196
G1 X117.058 Y126.998 E.01963
G1 X116.176 Y126.821 E.02176
G1 X115.351 Y126.472 E.02166
G1 X114.631 Y125.989 E.02098
G1 X113.996 Y125.351 E.02175
G1 X113.543 Y124.678 E.01964
G1 X113.222 Y123.951 E.01922
G1 X113.054 Y123.293 E.01642
G1 X112.986 Y122.646 E.01574
G1 X113.03 Y121.85 E.01928
G1 X113.233 Y121.019 E.02068
G1 X113.59 Y120.239 E.02075
G1 X114.064 Y119.568 E.01987
G1 X114.681 Y118.969 E.02079
G1 X115.4 Y118.499 E.02077
G1 X116.191 Y118.175 E.02069
G1 X116.981 Y118.016 E.01949
G1 X117.057 Y118.393 F2400
G1 F1200
G1 X117.847 Y118.383 E.0191
G1 X118.43 Y118.472 E.01427
G1 X119.019 Y118.655 E.01491
G1 X119.669 Y118.98 E.01757
G1 X120.262 Y119.422 E.01789
G1 X120.769 Y119.966 E.01799
G1 X121.19 Y120.632 E.01905
G1 X121.477 Y121.365 E.01904
