; generated by PrusaSlicer 2.4.2+win64 on 2022-09-03 at 11:54:27 UTC

; 

; external perimeters extrusion width = 0.45mm
; perimeters extrusion width = 0.45mm
; infill extrusion width = 0.45mm
; solid infill extrusion width = 0.45mm
; top infill extrusion width = 0.45mm
; support material extrusion width = 0.35mm
; first layer extrusion width = 0.42mm

M73 P0 R30
M73 Q0 S30
M201 X1000 Y1000 Z200 E5000 ; sets maximum accelerations, mm/sec^2
M203 X200 Y200 Z12 E120 ; sets maximum feedrates, mm / sec
M204 P1250 R1250 T1250 ; sets acceleration (P, T) and retract acceleration (R), mm/sec^2
M205 X10.00 Y10.00 Z0.20 E2.50 ; sets the jerk limits, mm/sec
M205 S0 T0 ; sets the minimum extruding and travel feed rate, mm/sec
M107
;TYPE:Custom
M115 U3.9.3 ; tell printer latest fw version
G90 ; use absolute coordinates
M83 ; extruder relative mode
M104 S195 ; set extruder temp
M140 S55 ; set bed temp
M190 S55 ; wait for bed temp
M109 S195 ; wait for extruder temp
G28 W ; home all without mesh bed level
G80 ; mesh bed leveling
G92 E0.0
G1 Z2.0 F3000 ;Move Z Axis up
G1 X10.1 Y20 Z0.28 F5000.0 ;Move to start position
G1 X10.1 Y200.0 Z0.28 F1500.0 E15 ;Draw the first line
G1 X10.4 Y200.0 Z0.28 F5000.0 ;Move to side a little
G1 X10.4 Y20 Z0.28 F1500.0 E30 ;Draw the second line
G92 E0.0
G1 Z2.0 F3000 ;Move Z Axis up
G21 ; set units to millimeters
G90 ; use absolute coordinates
M83 ; use relative distances for extrusion
; Filament gcode
M107
;LAYER_CHANGE
;Z:0.15
;HEIGHT:0.15
;BEFORE_LAYER_CHANGE
G92 E0.0
;0.15


G1 E-6 F4800
G1 Z.3 F2400
;AFTER_LAYER_CHANGE
;0.15
G1 X90.283 Y78.943
G1 Z.15
G1 E6 F3000
M204 S1000
;TYPE:Skirt/Brim
;WIDTH:0.42
G1 F1200
G1 X91.431 Y77.841 E.03849
G1 X92.694 Y76.873 E.03849
G1 X94.058 Y76.054 E.03849
M73 P1 R30
M73 Q1 S30
G1 X95.506 Y75.392 E.03848
G1 X96.476 Y75.053 E.02485
G1 X98.019 Y74.668 E.03848
G1 X99.597 Y74.458 E.03849
G1 X100.674 Y74.412 E.02608
G1 X134.335 Y74.413 E.81409
G1 X135.403 Y74.458 E.02585
G1 X136.981 Y74.668 E.03849
G1 X138.524 Y75.053 E.03848
G1 X139.494 Y75.392 E.02486
G1 X141.435 Y76.327 E.0521
G1 X142.766 Y77.2 E.03849
G1 X143.569 Y77.841 E.02485
G1 X145.109 Y79.384 E.05273
G1 X146.06 Y80.628 E.03785
G1 X146.607 Y81.498 E.02485
G1 X147.325 Y82.917 E.03848
G1 X147.881 Y84.409 E.03849
G1 X148.36 Y86.509 E.05211
G1 X148.521 Y88.607 E.0509
G1 X148.521 Y146.393 E1.39753
G1 X148.475 Y147.47 E.02608
G1 X148.266 Y149.047 E.03849
G1 X147.881 Y150.591 E.03849
G1 X147.325 Y152.083 E.03848
G1 X146.593 Y153.525 E.03912
G1 X145.733 Y154.833 E.03785
G1 X145.093 Y155.636 E.02485
G1 X143.99 Y156.783 E.03849
G1 X142.766 Y157.8 E.03849
G1 X141.436 Y158.673 E.03849
G1 X140.016 Y159.392 E.03849
G1 X137.982 Y160.104 E.0521
G1 X136.424 Y160.427 E.03849
G1 X134.326 Y160.588 E.0509
G1 X100.674 Y160.588 E.81386
G1 X99.597 Y160.542 E.02608
G1 X98.02 Y160.332 E.03848
G1 X96.475 Y159.947 E.03849
G1 X94.984 Y159.392 E.03848
G1 X93.542 Y158.66 E.03912
G1 X92.234 Y157.8 E.03785
G1 X91.431 Y157.159 E.02485
G1 X90.283 Y156.057 E.03849
G1 X88.94 Y154.372 E.0521
G1 X88.12 Y153.008 E.03849
G1 X87.45 Y151.537 E.03912
G1 X86.963 Y150.049 E.03785
G1 X86.734 Y149.047 E.02485
G1 X86.525 Y147.47 E.03848
G1 X86.479 Y88.607 E1.42358
G1 X86.525 Y87.53 E.02608
G1 X86.734 Y85.953 E.03848
G1 X87.119 Y84.409 E.03849
G1 X87.675 Y82.917 E.03849
G1 X88.393 Y81.498 E.03848
G1 X89.267 Y80.167 E.03849
G1 X90.245 Y78.989 E.03703
G1 X90.543 Y79.237 F2400
G1 F1200
G1 X91.689 Y78.13 E.03854
G1 X92.919 Y77.19 E.03744
G1 X94.246 Y76.393 E.03743
G1 X95.654 Y75.75 E.03743
G1 X96.583 Y75.425 E.0238
G1 X98.084 Y75.05 E.03743
G1 X99.619 Y74.845 E.03744
G1 X100.674 Y74.8 E.02555
G1 X134.335 Y74.8 E.81409
G1 X135.381 Y74.845 E.02532
G1 X136.916 Y75.05 E.03744
G1 X138.417 Y75.425 E.03743
G1 X139.346 Y75.75 E.0238
G1 X141.248 Y76.666 E.05105
G1 X142.541 Y77.516 E.03743
G1 X143.311 Y78.13 E.0238
G1 X144.82 Y79.642 E.05167
G1 X145.744 Y80.852 E.03682
G1 X146.267 Y81.685 E.0238
G1 X146.967 Y83.066 E.03743
G1 X147.508 Y84.516 E.03743
G1 X147.978 Y86.574 E.05105
G1 X148.133 Y88.607 E.04932
G1 X148.133 Y146.393 E1.39753
G1 X148.088 Y147.448 E.02555
M73 P2 R30
M73 Q2 S30
G1 X147.883 Y148.982 E.03743
G1 X147.508 Y150.484 E.03744
G1 X146.967 Y151.934 E.03743
G1 X146.254 Y153.336 E.03805
G1 X145.417 Y154.608 E.03682
G1 X144.427 Y155.798 E.03743
G1 X143.732 Y156.494 E.0238
G1 X142.541 Y157.484 E.03743
G1 X141.248 Y158.334 E.03743
G1 X139.867 Y159.034 E.03744
G1 X137.875 Y159.731 E.05105
G1 X136.359 Y160.045 E.03744
G1 X134.326 Y160.2 E.04932
M73 P2 R29
G1 X100.674 Y160.2 E.81386
G1 X99.619 Y160.155 E.02555
G1 X98.085 Y159.95 E.03743
G1 X96.583 Y159.575 E.03744
G1 X95.133 Y159.034 E.03743
G1 X93.73 Y158.321 E.03805
G1 X92.459 Y157.484 E.03682
G1 X91.689 Y156.87 E.0238
G1 X90.573 Y155.798 E.03743
G1 X89.256 Y154.148 E.05105
G1 X88.46 Y152.821 E.03744
M73 Q2 S29
G1 X87.808 Y151.389 E.03805
G1 X87.336 Y149.942 E.03682
G1 X87.117 Y148.982 E.0238
G1 X86.912 Y147.448 E.03743
G1 X86.867 Y88.607 E1.42305
G1 X86.912 Y87.552 E.02555
G1 X87.117 Y86.018 E.03743
G1 X87.492 Y84.516 E.03743
G1 X88.033 Y83.066 E.03743
G1 X88.733 Y81.685 E.03743
G1 X89.583 Y80.392 E.03744
G1 X90.505 Y79.283 E.03487
G1 X90.803 Y79.531 F2400
G1 F1200
G1 X91.948 Y78.419 E.03861
G1 X93.143 Y77.506 E.03638
G1 X94.434 Y76.733 E.03638
G1 X95.802 Y76.109 E.03638
G1 X96.69 Y75.798 E.02275
G1 X98.149 Y75.432 E.03638
G1 X99.64 Y75.232 E.03638
G1 X100.674 Y75.188 E.02503
G1 X134.335 Y75.188 E.81409
G1 X135.36 Y75.232 E.02479
G1 X136.851 Y75.432 E.03638
G1 X138.31 Y75.798 E.03638
G1 X139.198 Y76.109 E.02275
G1 X141.06 Y77.006 E.05
G1 X142.317 Y77.832 E.03638
G1 X143.052 Y78.419 E.02275
G1 X144.53 Y79.9 E.0506
G1 X145.427 Y81.076 E.03578
G1 X145.928 Y81.873 E.02275
G1 X146.609 Y83.214 E.03638
G1 X147.135 Y84.623 E.03638
G1 X147.595 Y86.639 E.05
G1 X147.746 Y88.607 E.04774
G1 X147.746 Y146.393 E1.39753
G1 X147.701 Y147.426 E.02502
G1 X147.501 Y148.917 E.03638
G1 X147.135 Y150.377 E.03638
G1 X146.609 Y151.786 E.03638
G1 X145.915 Y153.148 E.03698
G1 X145.101 Y154.384 E.03578
G1 X144.514 Y155.119 E.02275
G1 X143.473 Y156.205 E.03638
G1 X142.317 Y157.167 E.03638
G1 X141.06 Y157.994 E.03638
G1 X139.719 Y158.676 E.03639
G1 X137.768 Y159.358 E.05
G1 X136.294 Y159.662 E.03638
G1 X134.326 Y159.812 E.04774
G1 X100.674 Y159.812 E.81386
G1 X99.64 Y159.768 E.02502
G1 X98.15 Y159.568 E.03638
G1 X96.69 Y159.202 E.03639
G1 X95.281 Y158.676 E.03638
G1 X93.919 Y157.982 E.03698
G1 X92.683 Y157.168 E.03578
G1 X91.948 Y156.581 E.02275
G1 X90.862 Y155.54 E.03638
G1 X89.573 Y153.924 E.05
G1 X88.799 Y152.633 E.03638
G1 X88.167 Y151.241 E.03698
G1 X87.708 Y149.834 E.03578
G1 X87.499 Y148.917 E.02275
M73 P3 R29
G1 X87.299 Y147.426 E.03638
M73 Q3 S29
G1 X87.254 Y88.607 E1.42253
G1 X87.299 Y87.574 E.02502
G1 X87.499 Y86.083 E.03638
G1 X87.865 Y84.623 E.03638
G1 X88.391 Y83.214 E.03638
G1 X89.072 Y81.873 E.03638
G1 X89.899 Y80.616 E.03638
G1 X90.764 Y79.577 E.03269
; printing object middle.stl id:0 copy 0
G1 E-.9 F4800
;WIPE_START
G1 F1920
G1 X91.948 Y78.419 E-3.93313
G1 X92.253 Y78.186 E-.91186
;WIPE_END
G1 E-.255 F4800
G1 Z.45 F2400
G1 X133.551 Y144.436
G1 Z.15
G1 E6 F3000
;TYPE:Perimeter
G1 F1200
G1 X133.104 Y144.67 E.0122
G1 X132.726 Y145.005 E.0122
G1 X132.44 Y145.42 E.0122
G1 X132.343 Y145.674 E.00656
G1 X132.363 Y145.249 E.01028
G1 X132.408 Y145.079 E.00426
G1 X132.483 Y144.919 E.00426
G1 X132.584 Y144.775 E.00426
G1 X132.708 Y144.65 E.00426
G1 X132.852 Y144.549 E.00426
G1 X133.012 Y144.475 E.00426
G1 X133.182 Y144.429 E.00426
G1 X133.654 Y144.41 E.01142
G1 X133.609 Y144.421 E.00113
G1 X133.326 Y144.992 F2400
G1 F1200
G1 X133.689 Y144.801 E.00992
G1 X134.088 Y144.703 E.00992
G1 X134.498 Y144.703 E.00992
G1 X134.896 Y144.801 E.00992
G1 X135.26 Y144.992 E.00992
G1 X135.567 Y145.264 E.00992
G1 X135.8 Y145.602 E.00992
G1 X135.945 Y145.985 E.00992
G1 X135.995 Y146.393 E.00992
G1 X135.945 Y146.8 E.00992
G1 X135.8 Y147.184 E.00992
G1 X135.567 Y147.521 E.00992
G1 X135.26 Y147.793 E.00992
G1 X134.896 Y147.984 E.00992
G1 X134.498 Y148.082 E.00992
G1 X134.088 Y148.082 E.00992
G1 X133.689 Y147.984 E.00992
G1 X133.326 Y147.793 E.00992
G1 X133.019 Y147.521 E.00992
G1 X132.786 Y147.184 E.00992
G1 X132.64 Y146.8 E.00992
G1 X132.591 Y146.393 E.00992
G1 X132.64 Y145.985 E.00992
G1 X132.786 Y145.602 E.00992
G1 X133.019 Y145.264 E.00992
G1 X133.281 Y145.031 E.00847
G1 X133.548 Y145.313 F2400
;TYPE:External perimeter
G1 F1200
G1 X133.828 Y145.166 E.00765
G1 X134.135 Y145.091 E.00765
G1 X134.451 Y145.091 E.00765
G1 X134.758 Y145.166 E.00765
G1 X135.038 Y145.313 E.00765
G1 X135.274 Y145.523 E.00765
G1 X135.454 Y145.783 E.00765
G1 X135.566 Y146.079 E.00765
G1 X135.604 Y146.393 E.00765
G1 X135.566 Y146.706 E.00765
G1 X135.454 Y147.002 E.00765
G1 X135.274 Y147.262 E.00765
G1 X135.038 Y147.472 E.00765
G1 X134.758 Y147.619 E.00765
G1 X134.451 Y147.695 E.00765
G1 X134.135 Y147.695 E.00765
G1 X133.828 Y147.619 E.00765
G1 X133.548 Y147.472 E.00765
G1 X133.311 Y147.262 E.00765
G1 X133.131 Y147.002 E.00765
G1 X133.019 Y146.706 E.00765
G1 X132.981 Y146.393 E.00765
G1 X133.019 Y146.079 E.00765
G1 X133.131 Y145.783 E.00765
G1 X133.311 Y145.523 E.00765
G1 X133.503 Y145.353 E.0062
G1 X133.522 Y144.998 F2400
G1 E-.9 F4800
;WIPE_START
G1 F1920
G1 X133.828 Y145.166 E-.88994
G1 X134.135 Y145.091 E-.75092
G1 X134.451 Y145.091 E-.75091
G1 X134.758 Y145.166 E-.75092
G1 X135.038 Y145.313 E-.75092
G1 X135.274 Y145.523 E-.75093
G1 X135.322 Y145.592 E-.20046
;WIPE_END
G1 E-.255 F4800
G1 Z.45 F2400
G1 X132.343 Y149.41
G1 Z.15
G1 E6 F3000
;TYPE:Perimeter
G1 F1200
G1 X132.343 Y147.112 E.05559
G1 X132.44 Y147.365 E.00656
G1 X132.726 Y147.78 E.0122
G1 X133.104 Y148.115 E.0122
G1 X133.551 Y148.349 E.0122
G1 X134.04 Y148.47 E.0122
G1 X134.545 Y148.47 E.0122
G1 X135.035 Y148.349 E.0122
G1 X135.482 Y148.115 E.0122
G1 X135.859 Y147.78 E.0122
G1 X136.146 Y147.365 E.0122
G1 X136.325 Y146.893 E.0122
G1 X136.386 Y146.393 E.0122
G1 X136.325 Y145.892 E.0122
G1 X136.146 Y145.42 E.0122
G1 X135.859 Y145.005 E.0122
G1 X135.482 Y144.67 E.0122
G1 X135.035 Y144.436 E.0122
G1 X134.931 Y144.41 E.00258
G1 X137.343 Y144.41 E.05834
G1 X137.343 Y110.428 E.82186
G1 X138.372 Y110.428 E.02488
G1 X138.372 Y146.365 E.86913
G1 X138.345 Y146.845 E.01164
G1 X138.269 Y147.293 E.01097
G1 X138.144 Y147.728 E.01097
G1 X137.97 Y148.147 E.01095
G1 X137.746 Y148.551 E.0112
G1 X137.488 Y148.914 E.01076
G1 X137.186 Y149.253 E.01097
G1 X136.848 Y149.555 E.01097
G1 X136.478 Y149.817 E.01097
G1 X136.081 Y150.037 E.01097
G1 X135.662 Y150.21 E.01097
G1 X135.226 Y150.336 E.01097
G1 X134.779 Y150.412 E.01097
G1 X134.298 Y150.439 E.01164
G1 X124.515 Y150.439 E.23659
G1 X124.515 Y149.41 E.02488
G1 X132.283 Y149.41 E.18787
G1 X131.956 Y149.022 F2400
G1 F1200
G1 X131.956 Y145.451 E.08638
G1 X131.979 Y145.181 E.00653
G1 X132.042 Y144.946 E.0059
G1 X132.145 Y144.725 E.0059
G1 X132.285 Y144.525 E.0059
G1 X132.458 Y144.352 E.0059
G1 X132.658 Y144.212 E.0059
G1 X132.879 Y144.109 E.0059
G1 X133.115 Y144.046 E.0059
G1 X133.384 Y144.022 E.00653
G1 X136.956 Y144.022 E.08638
G1 X136.956 Y110.04 E.82186
G1 X138.61 Y110.04 E.04002
G1 X138.76 Y110.19 E.00512
G1 X138.76 Y146.376 E.87515
G1 X138.731 Y146.889 E.01243
G1 X138.648 Y147.379 E.01202
G1 X138.51 Y147.857 E.01202
G1 X138.32 Y148.316 E.01201
G1 X138.074 Y148.758 E.01225
G1 X137.792 Y149.157 E.01181
G1 X137.461 Y149.527 E.01202
G1 X137.09 Y149.859 E.01202
G1 X136.684 Y150.146 E.01202
G1 X136.249 Y150.387 E.01202
G1 X135.79 Y150.577 E.01202
G1 X135.312 Y150.715 E.01202
G1 X134.822 Y150.798 E.01202
G1 X134.309 Y150.827 E.01243
G1 X124.277 Y150.827 E.24261
G1 X124.128 Y150.677 E.00512
M73 P4 R29
G1 X124.128 Y149.022 E.04002
G1 X131.896 Y149.022 E.18787
M73 Q4 S29
G1 X131.568 Y148.635 F2400
;TYPE:External perimeter
G1 F1200
G1 X131.568 Y145.434 E.07741
G1 X131.596 Y145.114 E.00777
G1 X131.677 Y144.813 E.00754
G1 X131.808 Y144.53 E.00754
G1 X131.987 Y144.274 E.00754
G1 X132.208 Y144.054 E.00754
G1 X132.463 Y143.875 E.00754
G1 X132.746 Y143.743 E.00754
G1 X133.047 Y143.663 E.00754
G1 X133.367 Y143.635 E.00776
G1 X136.568 Y143.635 E.07741
G1 X136.568 Y109.652 E.82186
G1 X138.771 Y109.652 E.05328
G1 X139.148 Y110.029 E.01289
G1 X139.148 Y146.387 E.8793
G1 X139.117 Y146.932 E.01322
G1 X139.027 Y147.465 E.01308
G1 X138.877 Y147.985 E.01308
G1 X138.67 Y148.484 E.01307
G1 X138.403 Y148.965 E.0133
G1 X138.096 Y149.399 E.01285
G1 X137.735 Y149.802 E.01308
G1 X137.332 Y150.162 E.01308
G1 X136.891 Y150.475 E.01308
G1 X136.418 Y150.737 E.01308
G1 X135.918 Y150.944 E.01308
G1 X135.399 Y151.093 E.01308
G1 X134.866 Y151.184 E.01308
G1 X134.32 Y151.215 E.01322
G1 X124.117 Y151.215 E.24676
G1 X123.74 Y150.838 E.01289
G1 X123.74 Y148.635 E.05328
G1 X131.508 Y148.635 E.18787
G1 X131.966 Y148.598 F2400
G1 E-.9 F4800
;WIPE_START
G1 F1920
G1 X131.546 Y146.595 E-4.845
;WIPE_END
G1 E-.255 F4800
G1 Z.45 F2400
G1 X132.304 Y146.922
G1 Z.15
G1 E6 F3000
;TYPE:Gap fill
;WIDTH:0.323294
G1 F1200
G1 X132.273 Y146.407 E.00935
;WIDTH:0.278798
G1 X132.273 Y146.378 E.00046
;WIDTH:0.323293
G1 X132.304 Y145.864 E.00935
G1 E-.9 F4800
;WIPE_START
G1 F1920
G1 X132.273 Y146.378 E-1.22341
;WIPE_END
G1 E-3.87659 F4800
G1 Z.45 F2400
G1 X133.847 Y144.387
G1 Z.15
G1 E6 F3000
;WIDTH:0.336566
G1 F1200
G1 X134.029 Y144.365 E.00348
;WIDTH:0.329096
G1 X134.064 Y144.363 E.00066
;WIDTH:0.324782
G1 X134.521 Y144.363 E.00835
;WIDTH:0.329095
G1 X134.557 Y144.365 E.00066
;WIDTH:0.336566
G1 X134.739 Y144.387 E.00348
G1 E-.9 F4800
;WIPE_START
G1 F1920
G1 X134.557 Y144.365 E-.43504
;WIPE_END
G1 E-4.66496 F4800
G1 Z.45 F2400
G1 X135.765 Y144.604
G1 Z.15
G1 E6 F3000
;WIDTH:0.10739
G1 F1200
G1 X135.884 Y144.738 E.00084
G1 E-.9 F4800
;WIPE_START
G1 F1920
G1 X135.765 Y144.604 E-.42349
;WIPE_END
G1 E-4.67651 F4800
G1 Z.45 F2400
G1 X124.632 Y149.534
G1 Z.15
G1 E6 F3000
;TYPE:Solid infill
;WIDTH:0.422046
G1 F1200
G1 X125.245 Y150.148 E.0211
G1 X125.797 Y150.148 E.0134
G1 X125.35 Y149.701 E.01537
G1 X125.901 Y149.701 E.0134
G1 X126.348 Y150.148 E.01537
G1 X126.899 Y150.148 E.0134
G1 X126.452 Y149.701 E.01537
G1 X127.004 Y149.701 E.0134
G1 X127.451 Y150.148 E.01537
G1 X128.002 Y150.148 E.0134
G1 X127.555 Y149.701 E.01537
G1 X128.106 Y149.701 E.0134
G1 X128.553 Y150.148 E.01537
G1 X129.105 Y150.148 E.0134
G1 X128.658 Y149.701 E.01537
G1 X129.209 Y149.701 E.0134
G1 X129.656 Y150.148 E.01537
G1 X130.207 Y150.148 E.0134
G1 X129.76 Y149.701 E.01537
G1 X130.312 Y149.701 E.0134
G1 X130.759 Y150.148 E.01537
G1 X131.31 Y150.148 E.0134
G1 X130.863 Y149.701 E.01537
G1 X131.414 Y149.701 E.0134
G1 X131.862 Y150.148 E.01537
G1 X132.413 Y150.148 E.0134
G1 X131.966 Y149.701 E.01537
G1 X132.517 Y149.701 E.0134
G1 X132.964 Y150.148 E.01537
G1 X133.516 Y150.148 E.0134
G1 X132.634 Y149.267 E.0303
G1 X132.634 Y148.715 E.0134
G1 X134.067 Y150.148 E.04926
G1 X134.601 Y150.131 E.01299
G1 X132.634 Y148.164 E.06761
G1 X132.634 Y148.087 E.00186
G1 X132.937 Y148.356 E.00985
G1 X133.447 Y148.623 E.01398
G1 X133.71 Y148.688 E.00658
G1 X135.086 Y150.065 E.04733
G1 X135.521 Y149.948 E.01095
G1 X134.334 Y148.761 E.04082
G1 X134.58 Y148.761 E.00599
G1 X134.825 Y148.701 E.00612
G1 X135.915 Y149.791 E.03748
G1 X136.273 Y149.598 E.0099
G1 X135.244 Y148.568 E.03541
G1 X135.605 Y148.378 E.00993
G1 X136.601 Y149.374 E.03422
G1 X136.898 Y149.12 E.00951
G1 X135.906 Y148.128 E.03412
G1 X136.079 Y147.975 E.00561
G1 X136.171 Y147.841 E.00394
G1 X137.167 Y148.837 E.03425
G1 X137.407 Y148.526 E.00956
G1 X136.396 Y147.515 E.03477
G1 X136.551 Y147.118 E.01035
G1 X137.617 Y148.185 E.03666
G1 X137.795 Y147.811 E.01006
G1 X136.646 Y146.662 E.0395
G1 X136.679 Y146.393 E.00661
G1 X136.644 Y146.109 E.00694
G1 X137.935 Y147.401 E.0444
G1 X138.033 Y146.947 E.01129
G1 X136.427 Y145.341 E.05522
G1 X136.405 Y145.284 E.00148
G1 X136.14 Y144.899 E.01136
G1 X136.334 Y144.727 E.00632
G1 X136.311 Y144.701 E.00084
G1 X136.339 Y144.701 E.00066
G1 X138.077 Y146.439 E.05976
G1 X138.081 Y145.892 E.01329
G1 X136.89 Y144.701 E.04097
G1 X137.441 Y144.701 E.0134
G1 X138.081 Y145.341 E.02201
G1 X138.081 Y144.79 E.0134
G1 X137.634 Y144.343 E.01537
G1 X137.634 Y143.791 E.0134
G1 X138.081 Y144.238 E.01537
