; generated by PrusaSlicer 2.4.2+win64 on 2022-09-03 at 11:55:47 UTC

; 

; external perimeters extrusion width = 0.45mm
; perimeters extrusion width = 0.45mm
; infill extrusion width = 0.45mm
; solid infill extrusion width = 0.45mm
; top infill extrusion width = 0.45mm
; first layer extrusion width = 0.42mm

M73 P0 R4
M73 Q0 S4
M201 X1000 Y1000 Z200 E5000 ; sets maximum accelerations, mm/sec^2
M203 X200 Y200 Z12 E120 ; sets maximum feedrates, mm / sec
M204 P1250 R1250 T1250 ; sets acceleration (P, T) and retract acceleration (R), mm/sec^2
M205 X10.00 Y10.00 Z0.20 E2.50 ; sets the jerk limits, mm/sec
M205 S0 T0 ; sets the minimum extruding and travel feed rate, mm/sec
M107
;TYPE:Custom
M115 U3.9.3 ; tell printer latest fw version
G90 ; use absolute coordinates
M83 ; extruder relative mode
M104 S195 ; set extruder temp
M140 S55 ; set bed temp
M190 S55 ; wait for bed temp
M109 S195 ; wait for extruder temp
G28 W ; home all without mesh bed level
G80 ; mesh bed leveling
G92 E0.0
G1 Z2.0 F3000 ;Move Z Axis up
G1 X10.1 Y20 Z0.28 F5000.0 ;Move to start position
G1 X10.1 Y200.0 Z0.28 F1500.0 E15 ;Draw the first line
G1 X10.4 Y200.0 Z0.28 F5000.0 ;Move to side a little
M73 P2 R4
M73 Q2 S4
G1 X10.4 Y20 Z0.28 F1500.0 E30 ;Draw the second line
G92 E0.0
G1 Z2.0 F3000 ;Move Z Axis up
G21 ; set units to millimeters
G90 ; use absolute coordinates
M83 ; use relative distances for extrusion
; Filament gcode
M107
;LAYER_CHANGE
;Z:0.15
;HEIGHT:0.15
;BEFORE_LAYER_CHANGE
G92 E0.0
;0.15


M73 P5 R4
M73 Q5 S4
G1 E-6 F4800
G1 Z.3 F2400
;AFTER_LAYER_CHANGE
;0.15
G1 X108.25 Y107.097
G1 Z.15
M73 P6 R4
M73 Q6 S4
G1 E6 F3000
M204 S1000
;TYPE:Skirt/Brim
;WIDTH:0.42
G1 F1200
G1 X110.013 Y105.659 E.05501
G1 X112.051 Y104.65 E.05501
G1 X114.263 Y104.119 E.05501
G1 X115.512 Y104.037 E.03026
G1 X122.379 Y104.094 E.16608
G1 X124.813 Y104.65 E.06039
M73 P7 R4
M73 Q7 S4
G1 X126.851 Y105.659 E.05501
G1 X128.614 Y107.097 E.05501
G1 X129.893 Y108.701 E.04963
G1 X130.903 Y110.74 E.05501
G1 X131.433 Y112.951 E.05501
G1 X131.516 Y114.2 E.03026
G1 X131.458 Y121.826 E.18444
G1 X130.903 Y124.26 E.06039
G1 X129.893 Y126.299 E.05501
G1 X128.456 Y128.061 E.05501
G1 X126.662 Y129.46 E.05501
G1 X124.602 Y130.424 E.05501
G1 X122.378 Y130.906 E.05501
G1 X115.512 Y130.963 E.16608
G1 X114.263 Y130.881 E.03026
G1 X112.051 Y130.35 E.05501
G1 X110.013 Y129.341 E.05501
G1 X108.25 Y127.903 E.05501
G1 X106.852 Y126.109 E.05501
M73 P8 R4
M73 Q8 S4
G1 X105.888 Y124.049 E.05501
G1 X105.431 Y122.048 E.04963
G1 X105.348 Y120.8 E.03026
G1 X105.348 Y114.2 E.15962
G1 X105.431 Y112.952 E.03026
G1 X105.962 Y110.74 E.05501
G1 X106.852 Y108.891 E.04963
G1 X108.214 Y107.144 E.05356
G1 X108.517 Y107.381 F2400
G1 F1200
G1 X110.219 Y105.988 E.0532
G1 X112.18 Y105.016 E.05291
G1 X114.307 Y104.505 E.05291
G1 X115.512 Y104.424 E.02921
G1 X122.335 Y104.48 E.16503
G1 X124.685 Y105.016 E.05829
G1 X126.645 Y105.988 E.05291
G1 X128.34 Y107.371 E.05291
G1 X129.565 Y108.908 E.04753
G1 X130.537 Y110.868 E.05291
G1 X131.048 Y112.995 E.05291
G1 X131.128 Y114.2 E.02921
G1 X131.073 Y121.783 E.18339
G1 X130.537 Y124.132 E.05829
M73 P9 R4
M73 Q9 S4
G1 X129.565 Y126.092 E.05291
G1 X128.181 Y127.787 E.05291
G1 X126.455 Y129.131 E.05291
G1 X124.473 Y130.058 E.05291
G1 X122.335 Y130.52 E.05291
G1 X115.512 Y130.576 E.16503
G1 X114.307 Y130.495 E.02921
G1 X112.18 Y129.984 E.05291
G1 X110.219 Y129.012 E.05291
G1 X108.525 Y127.629 E.05291
G1 X107.18 Y125.903 E.05291
G1 X106.254 Y123.921 E.05291
G1 X105.816 Y122.005 E.04753
G1 X105.736 Y120.8 E.02921
G1 X105.736 Y114.2 E.15962
G1 X105.816 Y112.995 E.02921
G1 X106.328 Y110.868 E.05291
G1 X107.18 Y109.097 E.04753
G1 X108.48 Y107.428 E.05117
G1 X108.795 Y107.685 F2400
G1 F1200
G1 X108.957 Y107.487 E.00619
G1 X110.615 Y106.197 E.05081
G1 X112.308 Y105.382 E.04543
M73 P10 R4
M73 Q10 S4
G1 X114.35 Y104.89 E.05081
G1 X115.512 Y104.812 E.02816
G1 X122.292 Y104.865 E.16398
G1 X124.557 Y105.382 E.05619
G1 X126.439 Y106.316 E.05081
G1 X128.065 Y107.645 E.05081
G1 X129.237 Y109.114 E.04543
G1 X130.171 Y110.996 E.05081
G1 X130.663 Y113.038 E.05081
G1 X130.74 Y114.2 E.02816
G1 X130.688 Y121.739 E.18234
G1 X130.171 Y124.004 E.05619
G1 X129.237 Y125.886 E.05081
G1 X127.907 Y127.513 E.05081
G1 X126.249 Y128.803 E.05081
G1 X124.345 Y129.692 E.05081
G1 X122.514 Y130.11 E.04543
G1 X121.353 Y130.188 E.02816
G1 X115.512 Y130.188 E.14126
G1 X114.35 Y130.11 E.02816
G1 X112.308 Y129.618 E.05081
G1 X110.426 Y128.684 E.05081
M73 P11 R4
M73 Q11 S4
G1 X108.799 Y127.355 E.05081
G1 X107.509 Y125.696 E.05081
G1 X106.62 Y123.793 E.05081
G1 X106.202 Y121.962 E.04543
G1 X106.124 Y120.8 E.02816
G1 X106.124 Y114.2 E.15962
G1 X106.202 Y113.038 E.02816
G1 X106.694 Y110.996 E.05081
G1 X107.628 Y109.114 E.05081
G1 X108.757 Y107.732 E.04316
; printing object switch.stl id:0 copy 0
G1 E-.9 F4800
;WIPE_START
G1 F1920
G1 X108.957 Y107.487 E-.7508
G1 X110.318 Y106.428 E-4.0942
;WIPE_END
G1 E-.255 F4800
G1 Z.45 F2400
G1 X117.887 Y115.686
G1 Z.15
G1 E6 F3000
;TYPE:Perimeter
G1 F1200
G1 X121.338 Y115.686 E.08348
G1 X121.338 Y114.19 E.03617
G1 X121.359 Y114.195 E.00051
G1 X121.358 Y120.806 E.1599
G1 X115.505 Y120.805 E.14154
G1 X115.504 Y114.196 E.15983
M73 P12 R4
M73 Q12 S4
G1 X117.887 Y114.186 E.05761
G1 X117.887 Y115.626 E.03483
G1 X118.274 Y115.298 F2400
G1 F1200
G1 X120.95 Y115.298 E.06472
G1 X120.95 Y113.798 E.03628
G1 X121.441 Y113.812 E.01188
G1 X121.601 Y113.889 E.00429
G1 X121.711 Y114.027 E.00429
G1 X121.755 Y114.234 E.0051
G1 X121.755 Y120.766 E.158
G1 X121.711 Y120.973 E.0051
G1 X121.601 Y121.111 E.00429
G1 X121.525 Y121.159 E.00216
G1 X121.319 Y121.202 E.0051
G1 X115.545 Y121.202 E.13963
G1 X115.339 Y121.159 E.0051
G1 X115.263 Y121.111 E.00216
G1 X115.153 Y120.973 E.00429
G1 X115.11 Y120.766 E.0051
G1 X115.11 Y114.234 E.158
G1 X115.153 Y114.027 E.0051
G1 X115.263 Y113.889 E.00429
G1 X115.339 Y113.841 E.00216
G1 X115.545 Y113.798 E.0051
G1 X118.274 Y113.798 E.066
G1 X118.274 Y115.238 E.03483
G1 X118.662 Y114.91 F2400
;TYPE:External perimeter
G1 F1200
G1 X120.563 Y114.91 E.04596
G1 X120.563 Y113.41 E.03628
G1 X121.341 Y113.41 E.01882
G1 X121.528 Y113.431 E.00456
G1 X121.695 Y113.489 E.00427
G1 X121.844 Y113.583 E.00427
G1 X121.969 Y113.708 E.00427
G1 X122.063 Y113.858 E.00427
G1 X122.121 Y114.025 E.00427
G1 X122.143 Y114.212 E.00456
G1 X122.143 Y120.788 E.15905
G1 X122.121 Y120.975 E.00456
M73 P13 R4
M73 Q13 S4
G1 X122.063 Y121.142 E.00427
G1 X121.969 Y121.292 E.00427
G1 X121.844 Y121.417 E.00427
G1 X121.695 Y121.511 E.00427
G1 X121.528 Y121.569 E.00427
G1 X121.341 Y121.59 E.00456
G1 X115.524 Y121.59 E.14069
G1 X115.336 Y121.569 E.00456
G1 X115.17 Y121.511 E.00427
G1 X115.02 Y121.417 E.00427
G1 X114.895 Y121.292 E.00427
G1 X114.801 Y121.142 E.00427
G1 X114.743 Y120.975 E.00427
G1 X114.722 Y120.788 E.00456
G1 X114.722 Y114.212 E.15905
G1 X114.743 Y114.025 E.00456
G1 X114.801 Y113.858 E.00427
G1 X114.895 Y113.708 E.00427
G1 X115.02 Y113.583 E.00427
G1 X115.17 Y113.489 E.00427
G1 X115.336 Y113.431 E.00427
G1 X115.524 Y113.41 E.00456
G1 X118.662 Y113.41 E.07591
G1 X118.662 Y114.85 E.03483
G1 X118.809 Y115.282 F2400
G1 X117.77 Y114.798
;TYPE:Solid infill
;WIDTH:0.426119
G1 F1200
G1 X117.451 Y114.478 E.01111
G1 X116.896 Y114.481 E.01362
G1 X117.77 Y115.355 E.03038
G1 X118.217 Y115.802 F2400
G1 F1200
G1 X121.067 Y118.652 E.09902
G1 X121.067 Y118.095 E.01368
G1 X118.949 Y115.976 E.07361
G1 X119.506 Y115.976 E.01369
G1 X121.067 Y117.538 E.05426
G1 X121.068 Y116.981 E.01368
G1 X120.063 Y115.976 E.03491
G1 X120.62 Y115.976 E.01369
G1 X121.242 Y116.599 E.02162
G1 E-.9 F4800
;WIPE_START
G1 F1920
G1 X120.62 Y115.976 E-2.09004
G1 X120.063 Y115.976 E-1.32311
G1 X120.489 Y116.403 E-1.43184
;WIPE_END
G1 E-.255 F4800
G1 Z.45 F2400
G1 X121.242 Y119.384
G1 Z.15
G1 E6 F3000
G1 F1200
G1 X116.341 Y114.484 E.17024
G1 X115.795 Y114.486 E.01341
M73 P14 R4
M73 Q14 S4
G1 X121.067 Y119.766 E.1833
G1 X121.067 Y120.323 E.01368
G1 X115.795 Y115.052 E.18314
G1 X115.795 Y115.609 E.01369
M73 P14 R3
M73 Q14 S3
G1 X120.702 Y120.515 E.17046
G1 X120.145 Y120.515 E.01369
G1 X115.796 Y116.166 E.1511
G1 X115.796 Y116.723 E.01369
G1 X119.588 Y120.515 E.13174
G1 X119.03 Y120.515 E.01369
G1 X115.796 Y117.28 E.11238
G1 X115.796 Y117.838 E.01369
G1 X118.473 Y120.515 E.09301
G1 X117.916 Y120.515 E.01369
G1 X115.796 Y118.395 E.07365
G1 X115.796 Y118.952 E.01369
M73 P15 R3
M73 Q15 S3
G1 X117.359 Y120.515 E.05429
G1 X116.801 Y120.515 E.01369
G1 X115.796 Y119.509 E.03493
G1 X115.796 Y120.066 E.01369
G1 X116.419 Y120.689 E.02163
; stop printing object switch.stl id:0 copy 0
M106 S255
;LAYER_CHANGE
;Z:0.3
;HEIGHT:0.15
;BEFORE_LAYER_CHANGE
G92 E0.0
;0.3


G1 E-.9 F4800
;WIPE_START
G1 F1920
G1 X115.796 Y120.066 E-2.09111
G1 X115.796 Y119.509 E-1.3233
G1 X116.222 Y119.935 E-1.43058
;WIPE_END
G1 E-.255 F4800
G1 Z.45 F2400
;AFTER_LAYER_CHANGE
;0.3
; printing object switch.stl id:0 copy 0
G1 X117.812 Y115.761
G1 Z.3
G1 E6 F3000
M204 S800
;TYPE:Perimeter
;WIDTH:0.45
G1 F900
G1 X121.292 Y115.761 E.09068
G1 X121.292 Y120.739 E.12973
G1 X115.572 Y120.739 E.14903
G1 X115.572 Y114.261 E.16881
G1 X117.812 Y114.261 E.05834
G1 X117.812 Y115.701 E.03752
M204 S1000
G1 X118.229 Y115.343 F2400
M204 S800
G1 F900
G1 X120.995 Y115.343 E.07207
G1 X120.995 Y113.843 E.03908
M73 P16 R3
M73 Q16 S3
G1 X121.431 Y113.856 E.01136
G1 X121.573 Y113.924 E.00409
G1 X121.671 Y114.047 E.00409
G1 X121.71 Y114.236 E.00504
G1 X121.71 Y120.764 E.17009
G1 X121.671 Y120.953 E.00504
G1 X121.629 Y121.02 E.00206
G1 X121.506 Y121.118 E.00409
G1 X121.316 Y121.157 E.00504
G1 X115.548 Y121.157 E.1503
G1 X115.359 Y121.118 E.00504
G1 X115.3 Y121.081 E.00181
G1 X115.194 Y120.953 E.00433
G1 X115.155 Y120.764 E.00504
G1 X115.155 Y114.236 E.17009
G1 X115.194 Y114.047 E.00504
G1 X115.236 Y113.98 E.00206
G1 X115.359 Y113.882 E.00409
G1 X115.548 Y113.843 E.00504
G1 X118.229 Y113.843 E.06987
G1 X118.229 Y115.283 E.03752
M204 S1000
G1 X118.647 Y114.925 F2400
M204 S800
;TYPE:External perimeter
G1 F900
G1 X120.578 Y114.925 E.0503
G1 X120.578 Y113.425 E.03908
G1 X121.34 Y113.425 E.01986
G1 X121.525 Y113.446 E.00484
G1 X121.688 Y113.503 E.00451
G1 X121.835 Y113.595 E.00451
G1 X121.957 Y113.718 E.00451
G1 X122.05 Y113.864 E.00451
G1 X122.107 Y114.028 E.00451
G1 X122.128 Y114.213 E.00485
G1 X122.128 Y120.787 E.17131
G1 X122.107 Y120.972 E.00484
G1 X122.05 Y121.136 E.00451
G1 X121.957 Y121.282 E.00451
G1 X121.835 Y121.405 E.00451
G1 X121.688 Y121.497 E.00451
G1 X121.525 Y121.554 E.00451
G1 X121.34 Y121.575 E.00485
G1 X115.524 Y121.575 E.15153
G1 X115.34 Y121.554 E.00485
M73 P17 R3
M73 Q17 S3
G1 X115.176 Y121.497 E.00451
G1 X115.032 Y121.407 E.00443
G1 X114.891 Y121.257 E.00537
G1 X114.815 Y121.136 E.00372
G1 X114.758 Y120.972 E.00451
G1 X114.737 Y120.787 E.00485
G1 X114.737 Y114.213 E.17131
G1 X114.758 Y114.028 E.00484
G1 X114.815 Y113.864 E.00451
G1 X114.907 Y113.718 E.00451
G1 X115.029 Y113.595 E.00451
G1 X115.176 Y113.503 E.00451
G1 X115.34 Y113.446 E.00451
G1 X115.524 Y113.425 E.00485
G1 X118.647 Y113.425 E.08137
G1 X118.647 Y114.865 E.03752
M204 S1000
G1 X118.793 Y115.297 F2400
G1 X116.586 Y114.386
;TYPE:Solid infill
;WIDTH:0.470614
G1 F900
G1 X115.886 Y115.086 E.02707
G1 X115.886 Y115.706 E.01695
G1 X117.018 Y114.574 E.04378
G1 X117.498 Y114.574 E.01313
G1 X117.498 Y114.714 E.00382
G1 X115.886 Y116.326 E.06235
G1 X115.886 Y116.946 E.01695
G1 X117.498 Y115.334 E.06235
G1 X117.498 Y115.954 E.01695
G1 X115.886 Y117.566 E.06235
G1 X115.886 Y118.186 E.01695
G1 X117.998 Y116.074 E.08167
G1 X118.618 Y116.074 E.01695
G1 X115.886 Y118.806 E.10565
G1 X115.886 Y119.426 E.01695
G1 X119.238 Y116.074 E.12962
G1 X119.858 Y116.074 E.01695
M73 P18 R3
M73 Q18 S3
G1 X115.886 Y120.046 E.1536
G1 X115.886 Y120.426 E.01038
G1 X116.126 Y120.426 E.00657
G1 X120.478 Y116.074 E.16828
G1 X120.979 Y116.074 E.01368
G1 X120.979 Y116.194 E.00327
G1 X116.746 Y120.426 E.16365
G1 X117.366 Y120.426 E.01695
G1 X120.979 Y116.814 E.13968
G1 X120.979 Y117.434 E.01695
G1 X117.986 Y120.426 E.11571
G1 X118.606 Y120.426 E.01695
G1 X120.979 Y118.054 E.09173
G1 X120.979 Y118.674 E.01695
G1 X119.226 Y120.426 E.06776
G1 X119.846 Y120.426 E.01695
G1 X120.979 Y119.294 E.04378
M73 P19 R3
M73 Q19 S3
G1 X120.979 Y119.914 E.01695
G1 X120.278 Y120.614 E.02708
G1 X121.353 Y115.552 F2400
;TYPE:Gap fill
;WIDTH:0.328764
G1 F900
G1 X121.353 Y114.256 E.02396
G1 X121.35 Y114.203 E.00099
;WIDTH:0.322792
G1 X121.353 Y114.2 E.00008
; stop printing object switch.stl id:0 copy 0
;LAYER_CHANGE
;Z:0.45
;HEIGHT:0.15
;BEFORE_LAYER_CHANGE
G92 E0.0
;0.45


G1 E-.9 F4800
;WIPE_START
G1 F1920
G1 X121.35 Y114.203 E-.01001
;WIPE_END
G1 E-5.08999 F4800
G1 Z.6 F2400
;AFTER_LAYER_CHANGE
;0.45
; printing object switch.stl id:0 copy 0
G1 X117.812 Y115.761
G1 Z.45
G1 E6 F3000
M204 S800
;TYPE:Perimeter
;WIDTH:0.45
G1 F900
G1 X121.292 Y115.761 E.09068
G1 X121.292 Y120.739 E.12973
G1 X115.572 Y120.739 E.14903
G1 X115.572 Y114.261 E.16881
G1 X117.812 Y114.261 E.05834
G1 X117.812 Y115.701 E.03752
M204 S1000
G1 X118.229 Y115.343 F2400
M204 S800
G1 F900
G1 X120.995 Y115.343 E.07207
G1 X120.995 Y113.843 E.03908
M73 P20 R3
M73 Q20 S3
G1 X121.431 Y113.856 E.01136
G1 X121.573 Y113.924 E.00409
G1 X121.671 Y114.047 E.00409
G1 X121.71 Y114.236 E.00504
G1 X121.71 Y120.764 E.17009
G1 X121.676 Y120.939 E.00466
G1 X121.599 Y121.049 E.00349
G1 X121.506 Y121.118 E.00302
G1 X121.316 Y121.157 E.00504
G1 X115.548 Y121.157 E.1503
G1 X115.359 Y121.118 E.00504
G1 X115.236 Y121.02 E.00409
G1 X115.194 Y120.953 E.00206
G1 X115.155 Y120.764 E.00504
G1 X115.155 Y114.236 E.17009
G1 X115.194 Y114.047 E.00504
G1 X115.236 Y113.98 E.00206
G1 X115.359 Y113.882 E.0041
G1 X115.548 Y113.843 E.00504
G1 X118.229 Y113.843 E.06987
G1 X118.229 Y115.283 E.03752
M204 S1000
G1 X118.647 Y114.925 F2400
M204 S800
;TYPE:External perimeter
G1 F900
G1 X120.578 Y114.925 E.0503
G1 X120.578 Y113.425 E.03908
G1 X121.34 Y113.425 E.01986
G1 X121.525 Y113.446 E.00485
G1 X121.688 Y113.503 E.00451
G1 X121.835 Y113.595 E.00451
G1 X121.957 Y113.718 E.00451
G1 X122.05 Y113.864 E.00451
G1 X122.107 Y114.028 E.00451
G1 X122.128 Y114.213 E.00485
G1 X122.128 Y120.787 E.17131
G1 X122.107 Y120.972 E.00485
G1 X122.051 Y121.131 E.00438
M73 P21 R3
M73 Q21 S3
G1 X121.921 Y121.318 E.00594
G1 X121.835 Y121.405 E.00319
G1 X121.688 Y121.497 E.00451
G1 X121.525 Y121.554 E.00451
G1 X121.34 Y121.575 E.00485
G1 X115.524 Y121.575 E.15153
G1 X115.34 Y121.554 E.00485
G1 X115.176 Y121.497 E.00451
G1 X115.029 Y121.405 E.00451
G1 X114.907 Y121.282 E.00451
G1 X114.815 Y121.136 E.00451
G1 X114.758 Y120.972 E.00451
G1 X114.737 Y120.787 E.00485
G1 X114.737 Y114.213 E.17131
G1 X114.758 Y114.028 E.00485
G1 X114.815 Y113.864 E.00451
G1 X114.907 Y113.718 E.00451
G1 X115.029 Y113.595 E.00451
G1 X115.176 Y113.503 E.00451
G1 X115.34 Y113.446 E.00451
G1 X115.524 Y113.425 E.00485
G1 X118.647 Y113.425 E.08137
G1 X118.647 Y114.865 E.03752
M204 S1000
G1 X118.793 Y115.297 F2400
G1 X117.686 Y115.085
;TYPE:Solid infill
;WIDTH:0.459801
G1 F900
G1 X117.175 Y114.574 E.01928
G1 X116.57 Y114.574 E.01613
G1 X117.498 Y115.502 E.035
G1 X117.498 Y116.074 E.01525
G1 X118.07 Y116.074 E.01525
G1 X120.979 Y118.982 E.10968
G1 X120.979 Y118.378 E.01613
G1 X118.675 Y116.074 E.08687
G1 X119.28 Y116.074 E.01613
G1 X120.979 Y117.773 E.06407
G1 X120.979 Y117.168 E.01613
G1 X119.884 Y116.074 E.04126
G1 X120.489 Y116.074 E.01613
G1 X121.167 Y116.751 E.02555
G1 X121.353 Y115.552 F2400
;TYPE:Gap fill
;WIDTH:0.328764
G1 F900
G1 X121.353 Y114.256 E.02396
G1 X121.35 Y114.203 E.00099
;WIDTH:0.322791
M73 P22 R3
M73 Q22 S3
G1 X121.353 Y114.2 E.00008
G1 X121.167 Y119.775 F2400
;TYPE:Solid infill
;WIDTH:0.459801
G1 F900
G1 X115.966 Y114.574 E.19615
G1 X115.886 Y114.574 E.00213
G1 X115.886 Y115.099 E.014
G1 X120.979 Y120.192 E.19206
G1 X120.979 Y120.426 E.00625
G1 X120.608 Y120.426 E.00988
G1 X115.886 Y115.704 E.17809
G1 X115.886 Y116.308 E.01613
G1 X120.003 Y120.426 E.15529
G1 X119.399 Y120.426 E.01613
G1 X115.886 Y116.913 E.13248
G1 X115.886 Y117.518 E.01613
G1 X118.794 Y120.426 E.10968
G1 X118.189 Y120.426 E.01613
M73 P23 R3
M73 Q23 S3
G1 X115.886 Y118.123 E.08687
G1 X115.886 Y118.727 E.01613
