; generated by PrusaSlicer 2.4.2+win64 on 2022-09-03 at 11:56:18 UTC

; 

; external perimeters extrusion width = 0.45mm
; perimeters extrusion width = 0.45mm
; infill extrusion width = 0.45mm
; solid infill extrusion width = 0.45mm
; top infill extrusion width = 0.45mm
; support material extrusion width = 0.35mm
; first layer extrusion width = 0.42mm

M73 P0 R41
M73 Q0 S42
M201 X1000 Y1000 Z200 E5000 ; sets maximum accelerations, mm/sec^2
M203 X200 Y200 Z12 E120 ; sets maximum feedrates, mm / sec
M204 P1250 R1250 T1250 ; sets acceleration (P, T) and retract acceleration (R), mm/sec^2
M205 X10.00 Y10.00 Z0.20 E2.50 ; sets the jerk limits, mm/sec
M205 S0 T0 ; sets the minimum extruding and travel feed rate, mm/sec
M107
;TYPE:Custom
M115 U3.9.3 ; tell printer latest fw version
G90 ; use absolute coordinates
M83 ; extruder relative mode
M104 S195 ; set extruder temp
M140 S55 ; set bed temp
M190 S55 ; wait for bed temp
M109 S195 ; wait for extruder temp
G28 W ; home all without mesh bed level
G80 ; mesh bed leveling
G92 E0.0
G1 Z2.0 F3000 ;Move Z Axis up
G1 X10.1 Y20 Z0.28 F5000.0 ;Move to start position
G1 X10.1 Y200.0 Z0.28 F1500.0 E15 ;Draw the first line
G1 X10.4 Y200.0 Z0.28 F5000.0 ;Move to side a little
M73 Q0 S41
G1 X10.4 Y20 Z0.28 F1500.0 E30 ;Draw the second line
G92 E0.0
G1 Z2.0 F3000 ;Move Z Axis up
G21 ; set units to millimeters
G90 ; use absolute coordinates
M83 ; use relative distances for extrusion
; Filament gcode
M107
;LAYER_CHANGE
;Z:0.15
;HEIGHT:0.15
;BEFORE_LAYER_CHANGE
G92 E0.0
;0.15


G1 E-6 F4800
G1 Z.3 F2400
;AFTER_LAYER_CHANGE
;0.15
G1 X90.283 Y78.943
G1 Z.15
G1 E6 F3000
M204 S1000
;TYPE:Skirt/Brim
;WIDTH:0.42
G1 F1200
G1 X91.01 Y78.217 E.02485
G1 X92.234 Y77.2 E.03848
G1 X93.564 Y76.327 E.03849
G1 X94.984 Y75.608 E.03849
G1 X96.475 Y75.053 E.03848
G1 X98.02 Y74.668 E.03849
G1 X99.597 Y74.458 E.03848
G1 X100.674 Y74.412 E.02608
G1 X134.84 Y74.426 E.82629
G1 X136.98 Y74.668 E.0521
G1 X138.525 Y75.053 E.03849
G1 X140.016 Y75.608 E.03848
G1 X140.974 Y76.072 E.02575
G1 X142.323 Y76.886 E.0381
G1 X143.99 Y78.217 E.05159
G1 X144.717 Y78.943 E.02485
G1 X145.733 Y80.167 E.03849
G1 X146.88 Y81.992 E.05211
G1 X147.541 Y83.439 E.03848
G1 X147.891 Y84.444 E.02575
G1 X148.36 Y86.509 E.05121
G1 X148.521 Y88.607 E.0509
G1 X148.521 Y146.393 E1.39753
G1 X148.475 Y147.47 E.02608
G1 X148.266 Y149.047 E.03849
G1 X147.881 Y150.591 E.03849
G1 X147.325 Y152.083 E.03848
G1 X146.576 Y153.552 E.03989
G1 X145.733 Y154.833 E.03708
G1 X145.093 Y155.636 E.02485
G1 X143.99 Y156.783 E.03849
G1 X142.735 Y157.821 E.03938
G1 X140.942 Y158.946 E.05121
M73 P1 R41
M73 Q1 S41
G1 X139.494 Y159.608 E.03848
G1 X137.982 Y160.104 E.03849
G1 X136.424 Y160.427 E.03848
G1 X134.326 Y160.588 E.0509
G1 X100.674 Y160.588 E.81386
G1 X99.597 Y160.542 E.02608
G1 X98.019 Y160.332 E.03849
G1 X96.42 Y159.929 E.03989
G1 X94.984 Y159.392 E.03708
G1 X93.565 Y158.673 E.03848
G1 X92.694 Y158.127 E.02485
G1 X91.431 Y157.159 E.03849
G1 X90.283 Y156.057 E.03849
G1 X88.94 Y154.372 E.0521
G1 X88.12 Y153.008 E.03849
G1 X87.459 Y151.561 E.03848
G1 X86.949 Y149.993 E.03989
G1 X86.64 Y148.491 E.03708
G1 X86.525 Y147.47 E.02485
G1 X86.479 Y88.607 E1.42358
G1 X86.525 Y87.53 E.02608
G1 X86.734 Y85.953 E.03848
G1 X87.138 Y84.354 E.03989
G1 X87.675 Y82.917 E.03708
G1 X88.393 Y81.498 E.03848
G1 X89.267 Y80.167 E.03849
G1 X90.245 Y78.989 E.03703
G1 X90.543 Y79.237 F2400
G1 F1200
G1 X91.268 Y78.506 E.02491
G1 X92.459 Y77.516 E.03743
G1 X93.752 Y76.666 E.03743
G1 X95.133 Y75.966 E.03744
G1 X96.583 Y75.425 E.03743
G1 X98.085 Y75.05 E.03744
G1 X99.619 Y74.845 E.03743
G1 X100.674 Y74.8 E.02555
G1 X134.818 Y74.814 E.82576
G1 X136.915 Y75.05 E.05105
G1 X138.417 Y75.425 E.03744
G1 X139.867 Y75.966 E.03743
G1 X140.785 Y76.41 E.02466
G1 X142.098 Y77.202 E.03709
G1 X143.732 Y78.506 E.05054
G1 X144.427 Y79.202 E.0238
G1 X145.417 Y80.392 E.03743
G1 X146.54 Y82.179 E.05105
G1 X147.183 Y83.587 E.03743
G1 X147.518 Y84.55 E.02466
G1 X147.978 Y86.574 E.0502
G1 X148.133 Y88.607 E.04932
G1 X148.133 Y146.393 E1.39753
G1 X148.088 Y147.448 E.02555
G1 X147.883 Y148.982 E.03743
G1 X147.508 Y150.484 E.03744
G1 X146.967 Y151.934 E.03743
G1 X146.238 Y153.363 E.0388
G1 X145.417 Y154.608 E.03607
G1 X144.803 Y155.378 E.0238
G1 X143.732 Y156.494 E.03743
G1 X142.512 Y157.504 E.03829
G1 X140.754 Y158.607 E.05019
G1 X139.346 Y159.25 E.03743
G1 X137.875 Y159.731 E.03744
G1 X136.359 Y160.045 E.03743
G1 X134.326 Y160.2 E.04932
G1 X100.674 Y160.2 E.81386
G1 X99.619 Y160.155 E.02555
G1 X98.084 Y159.95 E.03744
G1 X96.529 Y159.557 E.0388
G1 X95.133 Y159.034 E.03607
G1 X93.752 Y158.334 E.03743
G1 X92.919 Y157.81 E.0238
G1 X91.689 Y156.87 E.03743
G1 X90.573 Y155.798 E.03743
G1 X89.256 Y154.148 E.05105
G1 X88.46 Y152.821 E.03744
G1 X87.817 Y151.413 E.03743
G1 X87.322 Y149.887 E.0388
G1 X87.022 Y148.426 E.03607
G1 X86.912 Y147.448 E.0238
G1 X86.867 Y88.607 E1.42305
G1 X86.912 Y87.552 E.02555
G1 X87.117 Y86.018 E.03743
G1 X87.51 Y84.462 E.0388
G1 X88.033 Y83.066 E.03607
G1 X88.733 Y81.685 E.03743
G1 X89.583 Y80.392 E.03744
G1 X90.505 Y79.283 E.03487
G1 X90.802 Y79.531 F2400
G1 F1200
G1 X91.527 Y78.795 E.02498
G1 X92.683 Y77.833 E.03638
G1 X93.94 Y77.006 E.03638
G1 X95.281 Y76.324 E.03638
G1 X96.69 Y75.798 E.03638
G1 X98.15 Y75.432 E.03638
G1 X99.64 Y75.232 E.03638
G1 X100.674 Y75.188 E.02502
G1 X134.796 Y75.201 E.82523
G1 X136.85 Y75.432 E.05
G1 X138.31 Y75.798 E.03638
G1 X139.719 Y76.324 E.03638
G1 X140.596 Y76.749 E.02357
G1 X141.874 Y77.518 E.03607
G1 X143.473 Y78.795 E.04949
G1 X144.138 Y79.46 E.02275
G1 X145.101 Y80.616 E.03638
G1 X146.201 Y82.367 E.05
G1 X146.825 Y83.736 E.03638
G1 X147.145 Y84.656 E.02357
G1 X147.595 Y86.639 E.04918
G1 X147.746 Y88.607 E.04774
G1 X147.746 Y146.393 E1.39753
G1 X147.701 Y147.426 E.02502
M73 P2 R41
M73 Q2 S41
G1 X147.501 Y148.917 E.03638
G1 X147.135 Y150.377 E.03638
G1 X146.609 Y151.786 E.03638
G1 X145.899 Y153.174 E.03771
G1 X145.101 Y154.384 E.03505
G1 X144.514 Y155.119 E.02275
G1 X143.473 Y156.205 E.03638
G1 X142.289 Y157.187 E.0372
G1 X140.566 Y158.267 E.04918
G1 X139.198 Y158.891 E.03638
G1 X137.768 Y159.358 E.03639
G1 X136.294 Y159.662 E.03638
G1 X134.326 Y159.812 E.04775
G1 X100.674 Y159.812 E.81386
G1 X99.64 Y159.768 E.02502
G1 X98.149 Y159.568 E.03638
G1 X96.638 Y159.185 E.03771
G1 X95.281 Y158.676 E.03505
G1 X93.94 Y157.994 E.03638
G1 X93.143 Y157.494 E.02275
G1 X91.948 Y156.581 E.03638
G1 X90.862 Y155.54 E.03638
G1 X89.573 Y153.924 E.05
G1 X88.799 Y152.633 E.03638
G1 X88.175 Y151.264 E.03638
G1 X87.696 Y149.781 E.03771
G1 X87.405 Y148.361 E.03505
G1 X87.299 Y147.426 E.02275
G1 X87.254 Y88.607 E1.42253
G1 X87.299 Y87.574 E.02502
G1 X87.499 Y86.083 E.03638
G1 X87.882 Y84.571 E.03771
G1 X88.391 Y83.214 E.03505
G1 X89.072 Y81.873 E.03638
G1 X89.899 Y80.616 E.03638
G1 X90.764 Y79.577 E.03269
; printing object top.stl id:0 copy 0
G1 E-.9 F4800
;WIPE_START
G1 F1920
G1 X91.527 Y78.795 E-2.59508
G1 X92.255 Y78.189 E-2.24992
;WIPE_END
G1 E-.255 F4800
G1 Z.45 F2400
G1 X112.606 Y83.966
G1 Z.15
M73 P2 R40
G1 E6 F3000
;TYPE:Support material interface
;WIDTH:0.35
G1 F1200
G1 X112.133 Y84.439 E.01326
G1 X112.131 Y84.89 E.00894
G1 X112.912 Y84.109 E.02189
G1 X113.362 Y84.109 E.00891
G1 X112.13 Y85.341 E.03453
G1 X112.128 Y85.792 E.00894
G1 X113.811 Y84.109 E.04717
G1 X114.261 Y84.109 E.00891
G1 X112.127 Y86.243 E.05981
G1 X112.126 Y86.504 E.00518
G1 X112.213 Y86.592 E.00245
G1 X114.71 Y84.109 E.06978
G1 X115.159 Y84.109 E.00891
G1 X112.787 Y86.482 E.06651
G1 X112.99 Y86.442 E.00411
G1 X113.276 Y86.442 E.00568
G1 X115.609 Y84.109 E.06538
G1 X116.058 Y84.109 E.00891
M73 Q2 S40
G1 X113.726 Y86.442 E.06538
G1 X114.175 Y86.442 E.00891
G1 X116.508 Y84.109 E.06538
G1 X116.957 Y84.109 E.00891
G1 X114.625 Y86.442 E.06538
G1 X115.074 Y86.442 E.00891
G1 X117.407 Y84.109 E.06538
G1 X117.856 Y84.109 E.00891
G1 X115.524 Y86.442 E.06538
G1 X115.973 Y86.442 E.00891
G1 X118.306 Y84.109 E.06538
G1 X118.755 Y84.109 E.00891
G1 X116.423 Y86.442 E.06538
G1 X116.872 Y86.442 E.00891
G1 X119.204 Y84.109 E.06538
G1 X119.654 Y84.109 E.00891
G1 X117.322 Y86.442 E.06538
G1 X117.771 Y86.442 E.00891
G1 X120.103 Y84.109 E.06538
G1 X120.553 Y84.109 E.00891
G1 X118.22 Y86.442 E.06538
G1 X118.67 Y86.442 E.00891
G1 X121.002 Y84.109 E.06538
G1 X121.452 Y84.109 E.00891
G1 X119.119 Y86.442 E.06538
G1 X119.569 Y86.442 E.00891
G1 X121.901 Y84.109 E.06538
G1 X122.351 Y84.109 E.00891
G1 X120.018 Y86.442 E.06538
G1 X120.468 Y86.442 E.00891
G1 X122.846 Y84.064 E.06665
G1 X122.926 Y84.051 E.00161
G1 X122.927 Y84.432 E.00754
G1 X120.917 Y86.442 E.05633
G1 X121.367 Y86.442 E.00891
G1 X122.928 Y84.88 E.04378
G1 X122.93 Y85.328 E.00888
G1 X121.816 Y86.442 E.03122
G1 X122.07 Y86.442 E.00503
G1 X122.233 Y86.474 E.0033
G1 X122.931 Y85.776 E.01957
G1 X122.933 Y86.224 E.00888
G1 X122.48 Y86.677 E.01269
G1 E-.9 F4800
;WIPE_START
G1 F1920
G1 X122.933 Y86.224 E-1.52073
G1 X122.931 Y85.776 E-1.064
G1 X122.258 Y86.449 E-2.26027
;WIPE_END
G1 E-.255 F4800
G1 Z.45 F2400
G1 X136.63 Y126.011
G1 Z.15
G1 E6 F3000
G1 F1200
G1 X136.342 Y126.299 E.00807
G1 X136.343 Y126.748 E.00889
G1 X136.935 Y126.155 E.0166
G1 X137.383 Y126.157 E.00888
G1 X136.43 Y127.11 E.02671
G1 X136.492 Y127.498 E.00778
G1 X137.831 Y126.158 E.03755
G1 X138.279 Y126.16 E.00888
G1 X136.492 Y127.947 E.0501
G1 X136.492 Y128.397 E.00891
G1 X138.742 Y126.146 E.06307
G1 X138.853 Y126.129 E.00223
G1 X138.885 Y126.144 E.00069
G1 X138.833 Y126.505 E.00723
G1 X136.492 Y128.846 E.06562
G1 X136.492 Y129.296 E.00891
G1 X138.824 Y126.963 E.06538
G1 X138.824 Y127.413 E.00891
G1 X136.492 Y129.745 E.06538
G1 X136.492 Y130.195 E.00891
G1 X138.824 Y127.862 E.06538
G1 X138.824 Y128.312 E.00891
G1 X136.492 Y130.644 E.06538
G1 X136.492 Y131.093 E.00891
G1 X138.824 Y128.761 E.06538
G1 X138.824 Y129.21 E.00891
G1 X136.492 Y131.543 E.06538
G1 X136.492 Y131.992 E.00891
G1 X138.824 Y129.66 E.06538
G1 X138.824 Y130.109 E.00891
G1 X136.492 Y132.442 E.06538
G1 X136.492 Y132.891 E.00891
G1 X138.824 Y130.559 E.06538
G1 X138.824 Y131.008 E.00891
G1 X136.492 Y133.341 E.06538
G1 X136.492 Y133.79 E.00891
G1 X138.824 Y131.458 E.06538
G1 X138.824 Y131.907 E.00891
G1 X136.492 Y134.24 E.06538
G1 X136.492 Y134.689 E.00891
G1 X138.824 Y132.357 E.06538
G1 X138.824 Y132.806 E.00891
G1 X136.492 Y135.138 E.06538
G1 X136.492 Y135.588 E.00891
G1 X138.824 Y133.256 E.06538
G1 X138.824 Y133.705 E.00891
G1 X136.492 Y136.037 E.06538
G1 X136.492 Y136.487 E.00891
G1 X138.824 Y134.154 E.06538
G1 X138.824 Y134.604 E.00891
G1 X136.492 Y136.936 E.06538
G1 X136.492 Y137.386 E.00891
G1 X138.824 Y135.053 E.06538
G1 X138.824 Y135.503 E.00891
G1 X136.492 Y137.835 E.06538
G1 X136.492 Y138.285 E.00891
G1 X138.824 Y135.952 E.06538
G1 X138.824 Y136.402 E.00891
G1 X136.457 Y138.768 E.06633
G1 X136.408 Y139.015 E.00498
G1 X136.342 Y139.176 E.00345
G1 X136.342 Y139.334 E.00313
G1 X138.824 Y136.851 E.06958
G1 X138.824 Y137.301 E.00891
G1 X136.665 Y139.46 E.06053
G1 X137.116 Y139.459 E.00894
G1 X138.824 Y137.75 E.04789
G1 X138.824 Y138.199 E.00891
G1 X137.566 Y139.457 E.03525
G1 X138.017 Y139.456 E.00894
G1 X138.824 Y138.649 E.02261
G1 X138.831 Y139.091 E.00876
G1 X138.325 Y139.598 E.0142
G1 E-.9 F4800
;WIPE_START
G1 F1920
G1 X138.831 Y139.091 E-1.70185
G1 X138.824 Y138.649 E-1.04991
G1 X138.201 Y139.272 E-2.09324
;WIPE_END
G1 E-.255 F4800
G1 Z.45 F2400
G1 X133.286 Y98.73
G1 Z.15
G1 E6 F3000
;TYPE:Perimeter
;WIDTH:0.42
G1 F1200
G1 X132.849 Y98.773 E.01063
G1 X111.07 Y98.773 E.52671
G1 X110.633 Y98.73 E.01063
G1 X110.166 Y98.588 E.01181
G1 X109.735 Y98.358 E.01181
G1 X109.358 Y98.048 E.01181
G1 X109.048 Y97.671 E.01181
G1 X108.818 Y97.24 E.01181
G1 X108.676 Y96.773 E.01181
G1 X108.628 Y96.287 E.01181
G1 X108.676 Y95.801 E.01181
G1 X108.818 Y95.334 E.01181
G1 X109.048 Y94.904 E.01181
G1 X109.358 Y94.526 E.01181
G1 X109.735 Y94.217 E.01181
G1 X110.166 Y93.986 E.01181
G1 X110.633 Y93.845 E.01181
G1 X111.07 Y93.802 E.01063
G1 X132.849 Y93.802 E.52671
G1 X133.286 Y93.845 E.01063
M73 P3 R40
M73 Q3 S40
G1 X133.753 Y93.986 E.01181
G1 X134.184 Y94.216 E.01181
G1 X134.561 Y94.526 E.01181
G1 X134.871 Y94.904 E.01181
G1 X135.101 Y95.334 E.01181
G1 X135.243 Y95.801 E.01181
G1 X135.291 Y96.287 E.01181
G1 X135.243 Y96.773 E.01181
G1 X135.101 Y97.24 E.01181
G1 X134.871 Y97.671 E.01181
G1 X134.561 Y98.048 E.01181
G1 X134.184 Y98.358 E.01181
G1 X133.753 Y98.588 E.01181
G1 X133.344 Y98.712 E.01036
G1 X133.247 Y98.336 F2400
G1 F1200
G1 X132.83 Y98.385 E.01015
G1 X111.089 Y98.385 E.52579
G1 X110.709 Y98.348 E.00925
G1 X110.315 Y98.228 E.00996
G1 X109.952 Y98.034 E.00996
G1 X109.633 Y97.773 E.00996
G1 X109.372 Y97.454 E.00996
G1 X109.178 Y97.091 E.00996
G1 X109.058 Y96.697 E.00996
G1 X109.018 Y96.287 E.00996
G1 X109.058 Y95.877 E.00996
G1 X109.178 Y95.483 E.00996
G1 X109.372 Y95.12 E.00996
G1 X109.633 Y94.802 E.00996
G1 X109.952 Y94.541 E.00996
G1 X110.315 Y94.346 E.00996
G1 X110.709 Y94.227 E.00996
G1 X111.089 Y94.189 E.00925
G1 X132.83 Y94.189 E.52579
G1 X133.21 Y94.227 E.00925
G1 X133.604 Y94.346 E.00996
G1 X133.967 Y94.541 E.00996
G1 X134.286 Y94.802 E.00996
G1 X134.547 Y95.12 E.00996
G1 X134.741 Y95.483 E.00996
G1 X134.861 Y95.877 E.00996
G1 X134.901 Y96.287 E.00996
G1 X134.861 Y96.697 E.00996
G1 X134.741 Y97.091 E.00996
G1 X134.547 Y97.454 E.00996
G1 X134.286 Y97.773 E.00996
G1 X133.967 Y98.034 E.00996
G1 X133.604 Y98.228 E.00996
G1 X133.304 Y98.319 E.00758
G1 X133.134 Y97.965 F2400
;TYPE:External perimeter
G1 F1200
G1 X132.811 Y97.997 E.00786
G1 X111.108 Y97.997 E.52487
G1 X110.785 Y97.965 E.00786
G1 X110.464 Y97.868 E.00811
G1 X110.168 Y97.71 E.00811
G1 X109.909 Y97.497 E.00811
G1 X109.696 Y97.238 E.00811
G1 X109.538 Y96.942 E.00811
G1 X109.441 Y96.621 E.00811
G1 X109.408 Y96.287 E.00811
G1 X109.441 Y95.953 E.00811
G1 X109.538 Y95.632 E.00811
G1 X109.696 Y95.337 E.00811
G1 X109.909 Y95.077 E.00811
G1 X110.168 Y94.865 E.00811
G1 X110.464 Y94.706 E.00811
G1 X110.785 Y94.609 E.00811
G1 X111.108 Y94.577 E.00786
G1 X132.811 Y94.577 E.52487
G1 X133.134 Y94.609 E.00786
G1 X133.455 Y94.706 E.00811
G1 X133.751 Y94.865 E.00811
G1 X134.01 Y95.077 E.00811
G1 X134.223 Y95.337 E.00811
G1 X134.381 Y95.632 E.00811
G1 X134.478 Y95.953 E.00811
G1 X134.511 Y96.287 E.00811
G1 X134.478 Y96.621 E.00811
G1 X134.381 Y96.942 E.00811
G1 X134.223 Y97.238 E.00811
G1 X134.01 Y97.497 E.00811
G1 X133.751 Y97.71 E.00811
G1 X133.455 Y97.868 E.00811
G1 X133.192 Y97.948 E.00666
G1 X133.03 Y98.273 F2400
G1 E-.9 F4800
;WIPE_START
G1 F1920
G1 X132.811 Y97.997 E-.91218
G1 X131.155 Y97.997 E-3.93282
;WIPE_END
G1 E-.255 F4800
G1 Z.45 F2400
G1 X102.797 Y89.108
G1 Z.15
G1 E6 F3000
;TYPE:Perimeter
G1 F1200
G1 X102.618 Y89.58 E.0122
G1 X102.331 Y89.995 E.0122
G1 X101.954 Y90.33 E.0122
G1 X101.507 Y90.564 E.0122
G1 X101.017 Y90.685 E.0122
G1 X100.512 Y90.685 E.0122
G1 X100.023 Y90.564 E.0122
G1 X99.576 Y90.33 E.0122
G1 X99.198 Y89.995 E.0122
G1 X98.912 Y89.58 E.0122
G1 X98.733 Y89.108 E.0122
G1 X98.672 Y88.607 E.0122
G1 X98.733 Y88.107 E.0122
G1 X98.912 Y87.635 E.0122
G1 X99.198 Y87.22 E.0122
G1 X99.576 Y86.885 E.0122
G1 X100.023 Y86.651 E.0122
G1 X100.512 Y86.53 E.0122
G1 X101.017 Y86.53 E.0122
G1 X101.507 Y86.651 E.0122
G1 X101.954 Y86.885 E.0122
G1 X102.331 Y87.22 E.0122
G1 X102.618 Y87.635 E.0122
G1 X102.797 Y88.107 E.0122
G1 X102.858 Y88.607 E.0122
G1 X102.804 Y89.049 E.01075
G1 X102.417 Y89.015 F2400
G1 F1200
G1 X102.272 Y89.398 E.00992
G1 X102.039 Y89.736 E.00992
G1 X101.732 Y90.008 E.00992
G1 X101.368 Y90.199 E.00992
G1 X100.97 Y90.297 E.00992
G1 X100.56 Y90.297 E.00992
G1 X100.161 Y90.199 E.00992
G1 X99.798 Y90.008 E.00992
G1 X99.491 Y89.736 E.00992
G1 X99.257 Y89.398 E.00992
G1 X99.112 Y89.015 E.00992
G1 X99.062 Y88.607 E.00992
G1 X99.112 Y88.2 E.00992
G1 X99.257 Y87.816 E.00992
G1 X99.491 Y87.479 E.00992
G1 X99.798 Y87.207 E.00992
G1 X100.161 Y87.016 E.00992
G1 X100.56 Y86.918 E.00992
G1 X100.97 Y86.918 E.00992
G1 X101.368 Y87.016 E.00992
G1 X101.732 Y87.207 E.00992
G1 X102.039 Y87.479 E.00992
G1 X102.272 Y87.816 E.00992
G1 X102.417 Y88.2 E.00992
G1 X102.467 Y88.607 E.00992
G1 X102.425 Y88.955 E.00847
G1 X102.038 Y88.921 F2400
;TYPE:External perimeter
G1 F1200
